ncols        82
nrows        77
xllcorner    363688.000000000000
yllcorner    4952636.000000000000
cellsize     5.000000000000
NODATA_value -99.00
818.13 817.69 817.10 816.39 815.49 814.47 813.49 812.55 811.60 810.70 809.87 809.08 808.32 807.56 806.86 806.28 805.81 805.21 804.29 803.18 801.96 800.49 798.55 796.40 794.34 792.14 789.48 786.24 782.62 778.94 775.53 772.53 769.70 766.80 763.83 760.86 757.91 755.06 752.33 749.77 747.40 745.16 742.95 740.74 738.52 736.25 733.85 731.30 728.59 725.86 723.40 721.60 720.61 720.10 719.27 717.68 715.95 715.34 716.08 717.16 717.78 717.72 717.54 718.05 719.11 720.21 721.29 722.33 723.33 724.30 725.07 725.43 725.42 724.99 723.75 721.77 719.52 717.20 714.92 712.58 709.78 706.75 
819.85 819.54 819.18 818.62 817.77 816.76 815.76 814.76 813.76 812.76 811.83 810.99 810.18 809.37 808.56 807.78 807.08 806.41 805.52 804.31 802.78 800.67 798.01 795.33 793.00 790.87 788.59 785.87 782.63 779.05 775.52 772.38 769.54 766.70 763.77 760.80 757.83 754.88 752.04 749.48 747.26 745.13 742.96 740.79 738.60 736.38 734.17 732.04 729.84 727.58 725.58 724.21 723.50 723.09 722.51 721.41 719.90 719.02 719.41 720.10 720.09 719.56 719.22 719.66 720.69 721.80 722.91 724.00 725.04 725.97 726.59 726.79 726.74 726.49 725.61 723.85 721.57 719.17 716.79 714.18 711.07 707.93 
821.57 821.16 820.86 820.41 819.61 818.61 817.61 816.61 815.62 814.65 813.76 812.91 812.05 811.19 810.29 809.33 808.39 807.48 806.38 804.97 803.10 800.57 797.61 794.65 791.93 789.56 787.36 784.99 782.24 779.03 775.55 772.27 769.36 766.56 763.69 760.75 757.78 754.92 752.40 750.42 748.75 746.89 744.77 742.57 740.31 737.99 735.78 733.96 732.40 730.75 729.03 727.59 726.70 726.19 725.65 724.71 723.49 722.56 722.44 722.47 721.96 721.28 720.90 721.28 722.26 723.38 724.49 725.60 726.67 727.56 728.04 728.12 728.05 727.92 727.34 725.84 723.57 721.08 718.52 715.60 712.31 709.33 
823.42 822.80 822.41 821.96 821.19 820.21 819.23 818.25 817.32 816.47 815.72 814.89 813.90 812.88 811.87 810.80 809.67 808.38 806.83 805.07 802.91 800.24 797.30 794.27 791.29 788.54 786.12 783.81 781.37 778.61 775.47 772.19 769.18 766.39 763.58 760.71 757.92 755.57 753.91 752.83 751.73 749.99 747.78 745.41 742.96 740.49 738.22 736.49 735.34 734.21 732.73 731.20 730.04 729.32 728.69 727.74 726.64 725.73 725.10 724.51 723.74 723.01 722.59 722.89 723.83 724.93 726.03 727.12 728.16 729.04 729.50 729.55 729.46 729.34 728.93 727.72 725.53 722.90 720.06 716.88 713.58 710.95 
825.43 824.61 824.02 823.50 822.74 821.77 820.80 819.89 819.08 818.36 817.63 816.71 815.56 814.37 813.24 812.10 810.77 809.00 806.94 804.85 802.48 799.75 796.91 793.96 790.93 787.94 785.16 782.64 780.22 777.73 775.01 772.01 769.02 766.20 763.47 760.86 758.67 757.17 756.35 755.85 755.00 753.17 750.70 748.15 745.60 743.09 740.81 739.11 738.16 737.45 736.35 734.90 733.56 732.57 731.73 730.73 729.60 728.55 727.59 726.66 725.76 724.94 724.43 724.60 725.41 726.43 727.46 728.51 729.53 730.41 730.95 731.12 731.08 730.90 730.47 729.39 727.29 724.50 721.41 718.13 715.02 712.87 
827.60 826.65 825.78 825.07 824.29 823.35 822.46 821.66 820.92 820.13 819.21 818.14 816.94 815.70 814.49 813.26 811.68 809.42 806.90 804.51 801.96 799.21 796.43 793.59 790.63 787.59 784.59 781.73 779.08 776.60 774.13 771.52 768.79 766.13 763.59 761.40 760.00 759.29 758.93 758.68 757.89 756.02 753.42 750.77 748.19 745.68 743.40 741.72 740.87 740.43 739.73 738.57 737.21 736.00 734.97 733.91 732.67 731.37 730.20 729.18 728.24 727.35 726.72 726.73 727.36 728.22 729.14 730.09 731.02 731.82 732.33 732.60 732.67 732.42 731.79 730.62 728.59 725.78 722.57 719.45 716.82 715.22 
829.79 828.83 827.73 826.73 825.86 825.00 824.20 823.41 822.54 821.54 820.43 819.28 818.13 816.94 815.71 814.33 812.42 809.79 806.91 804.18 801.45 798.66 795.89 793.11 790.26 787.29 784.24 781.18 778.23 775.59 773.18 770.80 768.42 766.09 763.86 762.13 761.46 761.43 761.41 761.16 760.24 758.43 756.03 753.43 750.81 748.28 746.00 744.35 743.59 743.26 742.76 741.85 740.61 739.37 738.21 737.01 735.58 734.11 732.86 731.89 731.01 730.14 729.49 729.45 730.00 730.73 731.44 732.13 732.78 733.30 733.61 733.85 733.95 733.56 732.69 731.47 729.61 726.89 723.73 720.96 718.97 717.87 
831.88 830.95 829.75 828.49 827.49 826.68 825.83 824.89 823.83 822.69 821.53 820.38 819.24 818.09 816.86 815.30 813.02 810.11 807.05 804.07 801.16 798.29 795.46 792.65 789.83 786.93 783.93 780.89 777.98 775.33 772.81 770.32 767.93 765.79 764.12 763.29 763.41 763.86 763.94 763.47 762.26 760.44 758.33 755.97 753.42 750.89 748.63 747.06 746.37 746.03 745.42 744.50 743.35 742.11 740.83 739.44 737.96 736.59 735.47 734.58 733.78 732.97 732.35 732.26 732.70 733.26 733.72 734.10 734.45 734.69 734.80 734.96 734.97 734.39 733.38 732.20 730.55 728.05 725.12 722.80 721.33 720.43 
833.80 832.83 831.57 830.23 829.14 828.22 827.20 826.09 824.94 823.78 822.62 821.47 820.33 819.18 817.88 816.02 813.41 810.36 807.25 804.17 801.17 798.23 795.33 792.43 789.54 786.63 783.68 780.83 778.33 776.01 773.46 770.70 768.12 766.23 765.40 765.61 766.25 766.71 766.64 765.88 764.34 762.35 760.28 758.12 755.81 753.40 751.24 749.80 749.15 748.65 747.81 746.77 745.63 744.35 742.95 741.54 740.24 739.08 738.08 737.23 736.42 735.59 734.89 734.62 734.77 735.07 735.36 735.61 735.84 735.95 735.96 735.99 735.84 735.14 734.07 732.92 731.44 729.27 726.88 725.11 723.91 722.88 
835.53 834.42 833.14 831.83 830.66 829.55 828.38 827.20 826.04 824.88 823.72 822.56 821.41 820.21 818.63 816.28 813.43 810.47 807.42 804.35 801.31 798.35 795.41 792.47 789.52 786.54 783.55 780.81 778.64 776.81 774.70 772.09 769.66 768.36 768.25 768.77 769.39 769.72 769.52 768.59 766.85 764.60 762.34 760.14 757.97 755.80 753.86 752.56 751.82 751.06 750.07 749.02 747.88 746.56 745.17 743.92 742.82 741.75 740.71 739.77 738.84 737.86 737.05 736.65 736.54 736.58 736.73 736.93 737.13 737.17 737.09 736.98 736.71 735.96 734.88 733.72 732.43 730.88 729.31 728.01 726.78 725.52 
837.07 835.87 834.60 833.32 832.07 830.83 829.59 828.37 827.17 825.98 824.81 823.65 822.48 821.10 819.01 816.09 813.08 810.27 807.40 804.44 801.44 798.48 795.53 792.58 789.60 786.52 783.40 780.59 778.44 777.01 775.65 773.79 772.05 771.40 771.59 771.95 772.40 772.65 772.40 771.49 769.76 767.45 765.02 762.63 760.33 758.24 756.53 755.30 754.36 753.40 752.39 751.35 750.20 748.85 747.56 746.49 745.47 744.35 743.18 742.04 740.91 739.84 739.08 738.70 738.49 738.34 738.30 738.36 738.45 738.41 738.23 738.05 737.77 737.08 736.10 735.06 734.07 733.15 732.23 731.06 729.64 728.30 
838.61 837.40 836.15 834.80 833.43 832.14 830.88 829.63 828.38 827.16 825.95 824.76 823.50 821.77 819.05 815.67 812.57 809.82 807.06 804.26 801.41 798.52 795.61 792.67 789.63 786.42 783.18 780.30 778.01 776.59 775.87 775.26 774.73 774.64 774.82 775.06 775.36 775.44 775.13 774.33 772.76 770.52 768.04 765.51 763.01 760.83 759.19 757.97 756.88 755.83 754.81 753.75 752.52 751.12 749.90 748.88 747.79 746.57 745.28 743.99 742.75 741.73 741.13 740.84 740.60 740.38 740.18 740.04 739.91 739.67 739.36 739.12 738.81 738.24 737.48 736.72 736.07 735.53 734.90 733.79 732.37 731.13 
840.32 839.13 837.85 836.37 834.85 833.47 832.19 830.93 829.67 828.42 827.17 825.91 824.43 822.18 818.88 815.24 812.08 809.30 806.58 803.86 801.09 798.28 795.51 792.68 789.59 786.25 782.95 780.06 777.66 776.13 775.87 776.49 777.22 777.61 777.80 778.02 778.20 778.10 777.71 776.97 775.54 773.42 770.94 768.36 765.80 763.54 761.87 760.61 759.43 758.31 757.27 756.16 754.81 753.32 752.07 750.97 749.75 748.45 747.13 745.83 744.66 743.77 743.26 742.98 742.74 742.51 742.26 741.95 741.50 740.93 740.38 739.94 739.48 738.93 738.36 737.88 737.55 737.30 736.97 736.24 735.14 734.11 
842.02 840.87 839.58 838.04 836.38 834.87 833.51 832.24 830.98 829.72 828.45 827.08 825.26 822.45 818.80 815.11 811.88 809.06 806.32 803.50 800.62 797.76 795.10 792.40 789.26 785.93 782.77 780.05 777.82 776.43 776.54 777.85 779.21 779.92 780.23 780.53 780.71 780.56 780.11 779.34 777.97 775.97 773.56 771.02 768.51 766.29 764.64 763.30 762.01 760.82 759.72 758.54 757.06 755.45 754.10 752.86 751.55 750.23 748.91 747.69 746.71 746.02 745.50 745.14 744.89 744.64 744.34 743.89 743.19 742.30 741.45 740.74 740.15 739.66 739.27 739.02 738.86 738.73 738.61 738.37 737.85 737.19 
843.42 842.36 841.12 839.62 837.97 836.36 834.88 833.55 832.29 831.01 829.66 828.09 825.94 822.79 819.09 815.50 812.28 809.49 806.71 803.60 800.41 797.35 794.60 791.84 788.78 785.82 783.15 780.91 779.11 777.98 778.32 779.74 781.09 781.87 782.30 782.66 782.86 782.75 782.32 781.52 780.15 778.21 775.90 773.47 771.12 769.08 767.50 766.10 764.71 763.41 762.19 760.88 759.29 757.58 756.06 754.67 753.32 752.00 750.71 749.60 748.82 748.27 747.77 747.34 747.02 746.71 746.32 745.73 744.85 743.80 742.84 742.06 741.54 741.25 741.05 740.85 740.66 740.47 740.37 740.39 740.43 740.23 
844.62 843.58 842.38 840.97 839.44 837.87 836.32 834.90 833.57 832.20 830.66 828.86 826.46 823.20 819.54 816.07 813.04 810.48 807.72 804.31 800.67 797.35 794.52 791.91 789.33 786.91 784.70 782.86 781.38 780.43 780.81 782.01 783.07 783.83 784.29 784.65 784.87 784.78 784.39 783.62 782.28 780.41 778.22 775.97 773.82 771.94 770.38 768.93 767.48 766.07 764.69 763.25 761.63 759.87 758.08 756.47 755.10 753.78 752.55 751.59 750.96 750.47 749.99 749.53 749.12 748.73 748.21 747.45 746.41 745.33 744.52 744.01 743.73 743.60 743.43 743.17 742.90 742.68 742.59 742.84 743.25 743.34 
845.77 844.72 843.49 842.09 840.65 839.19 837.71 836.22 834.75 833.17 831.40 829.36 826.82 823.57 819.95 816.57 813.84 811.55 808.88 805.35 801.47 798.06 795.41 793.25 791.22 789.13 787.00 785.11 783.55 782.63 783.02 784.10 785.05 785.79 786.26 786.62 786.86 786.79 786.43 785.72 784.51 782.77 780.73 778.63 776.59 774.73 773.11 771.63 770.16 768.66 767.13 765.59 764.04 762.30 760.26 758.36 756.88 755.58 754.46 753.67 753.13 752.64 752.15 751.65 751.15 750.64 749.99 749.07 747.92 746.86 746.29 746.16 746.16 746.11 745.91 745.61 745.34 745.18 745.34 745.85 746.35 746.41 
846.90 845.83 844.56 843.15 841.71 840.29 838.87 837.37 835.71 833.88 831.85 829.60 827.04 823.91 820.37 817.12 814.60 812.43 809.91 806.58 802.83 799.57 797.01 794.90 793.02 791.20 789.21 787.14 785.24 784.18 784.67 785.93 786.99 787.76 788.25 788.62 788.88 788.84 788.46 787.81 786.78 785.21 783.28 781.25 779.21 777.32 775.67 774.16 772.63 771.02 769.36 767.72 766.19 764.56 762.52 760.39 758.70 757.41 756.44 755.79 755.29 754.79 754.27 753.71 753.08 752.37 751.60 750.68 749.58 748.60 748.18 748.34 748.62 748.66 748.38 748.03 747.79 747.82 748.24 748.80 749.11 749.04 
847.93 846.82 845.53 844.12 842.69 841.27 839.83 838.24 836.38 834.28 832.04 829.69 827.20 824.28 820.87 817.67 815.16 813.03 810.86 808.03 804.57 801.29 798.48 796.05 794.10 792.58 790.98 789.12 787.22 785.99 786.31 787.63 788.87 789.73 790.24 790.63 790.91 790.89 790.53 789.90 788.92 787.45 785.64 783.68 781.68 779.80 778.13 776.54 774.90 773.19 771.45 769.74 768.14 766.54 764.63 762.48 760.61 759.31 758.50 757.93 757.41 756.87 756.31 755.69 754.91 754.03 753.22 752.41 751.53 750.80 750.58 750.93 751.35 751.39 750.98 750.47 750.17 750.25 750.63 751.00 751.19 751.12 
848.81 847.62 846.32 844.95 843.57 842.19 840.68 838.89 836.77 834.47 832.13 829.77 827.35 824.65 821.50 818.35 815.64 813.47 811.68 809.43 806.26 802.82 799.73 797.06 794.91 793.48 792.40 791.09 789.58 788.46 788.50 789.54 790.78 791.71 792.25 792.63 792.88 792.88 792.60 791.97 790.89 789.47 787.80 785.93 783.99 782.18 780.48 778.80 777.06 775.30 773.54 771.80 770.10 768.43 766.55 764.47 762.55 761.27 760.55 759.99 759.42 758.85 758.24 757.54 756.66 755.76 755.02 754.38 753.79 753.39 753.43 753.86 754.22 754.21 753.79 753.12 752.56 752.39 752.52 752.74 752.95 752.97 
849.61 848.36 847.05 845.73 844.43 843.07 841.47 839.46 837.15 834.78 832.41 830.03 827.64 825.11 822.33 819.46 816.61 814.15 812.38 810.47 807.59 804.19 801.05 798.26 795.80 794.21 793.53 792.81 791.78 791.16 791.35 792.16 793.04 793.76 794.25 794.59 794.79 794.76 794.49 793.87 792.81 791.48 789.94 788.10 786.19 784.41 782.71 780.99 779.22 777.45 775.68 773.90 772.11 770.27 768.29 766.25 764.47 763.35 762.66 762.03 761.41 760.78 760.09 759.27 758.33 757.49 756.94 756.56 756.28 756.21 756.43 756.80 757.03 757.02 756.72 756.04 755.24 754.68 754.48 754.55 754.71 754.77 
850.39 849.14 847.85 846.57 845.33 843.97 842.27 840.16 837.81 835.43 833.05 830.68 828.30 825.83 823.21 820.52 817.72 815.05 813.04 811.09 808.37 805.28 802.35 799.57 796.94 795.15 794.65 794.43 793.92 793.84 794.39 795.07 795.48 795.82 796.16 796.45 796.59 796.49 796.17 795.57 794.61 793.43 792.02 790.26 788.33 786.53 784.87 783.20 781.44 779.64 777.80 775.91 773.95 771.89 769.77 767.82 766.41 765.59 764.95 764.26 763.57 762.84 762.01 761.03 760.03 759.29 758.94 758.82 758.83 759.03 759.35 759.64 759.78 759.81 759.63 759.04 758.17 757.35 756.83 756.64 756.63 756.62 
851.13 849.95 848.71 847.44 846.24 844.85 843.09 841.02 838.72 836.32 833.94 831.57 829.19 826.75 824.05 821.09 818.25 815.76 813.66 811.51 808.84 806.01 803.28 800.58 798.08 796.50 796.18 796.25 796.12 796.34 796.97 797.43 797.56 797.72 797.96 798.16 798.20 798.06 797.76 797.19 796.28 795.17 793.91 792.31 790.45 788.64 787.00 785.35 783.54 781.62 779.61 777.53 775.41 773.24 771.13 769.44 768.47 767.92 767.35 766.67 765.91 765.05 764.03 762.87 761.79 761.16 761.04 761.09 761.23 761.59 762.02 762.34 762.50 762.55 762.46 762.00 761.15 760.22 759.48 759.07 758.86 758.69 
851.84 850.73 849.55 848.32 847.11 845.68 843.89 841.94 839.71 837.30 834.90 832.50 830.12 827.69 824.92 821.64 818.60 816.28 814.21 811.89 809.23 806.51 803.79 801.13 799.11 798.15 798.03 798.17 798.27 798.55 799.01 799.28 799.36 799.49 799.67 799.74 799.67 799.54 799.31 798.80 797.90 796.80 795.59 794.15 792.45 790.67 788.99 787.24 785.26 783.16 781.01 778.83 776.65 774.50 772.62 771.36 770.70 770.25 769.73 769.06 768.21 767.17 765.95 764.57 763.36 762.91 763.09 763.27 763.47 763.91 764.46 764.91 765.14 765.22 765.16 764.78 764.06 763.15 762.29 761.69 761.33 760.98 
852.55 851.48 850.34 849.14 847.91 846.44 844.67 842.81 840.69 838.31 835.89 833.48 831.07 828.64 825.91 822.67 819.50 817.01 814.76 812.30 809.67 807.03 804.40 802.09 800.70 800.23 800.20 800.31 800.41 800.57 800.81 801.01 801.12 801.22 801.29 801.20 801.06 800.98 800.81 800.36 799.49 798.35 797.10 795.69 794.09 792.38 790.62 788.70 786.59 784.41 782.23 780.06 777.92 775.92 774.36 773.45 772.95 772.54 772.08 771.38 770.35 769.13 767.72 766.11 764.80 764.44 764.80 765.16 765.53 766.12 766.79 767.36 767.71 767.80 767.62 767.22 766.70 765.99 765.14 764.37 763.81 763.28 
853.28 852.19 851.05 849.85 848.59 847.10 845.37 843.59 841.62 839.32 836.90 834.48 832.06 829.61 826.97 823.97 820.90 818.13 815.54 812.96 810.36 807.78 805.42 803.74 802.99 802.78 802.70 802.59 802.42 802.33 802.43 802.63 802.81 802.89 802.81 802.60 802.44 802.33 802.13 801.67 800.84 799.73 798.41 796.90 795.28 793.60 791.83 789.84 787.71 785.55 783.44 781.41 779.47 777.72 776.48 775.74 775.26 774.92 774.50 773.65 772.38 771.00 769.50 767.80 766.36 765.84 766.14 766.70 767.39 768.19 768.98 769.69 770.17 770.23 769.86 769.36 769.00 768.55 767.79 766.90 766.10 765.40 
853.99 852.85 851.68 850.47 849.15 847.66 846.02 844.32 842.51 840.33 837.91 835.48 833.02 830.49 827.83 825.01 822.14 819.30 816.58 814.01 811.40 808.76 806.52 805.20 804.91 804.99 804.86 804.48 804.08 803.86 803.88 804.08 804.30 804.36 804.17 803.90 803.71 803.48 803.11 802.53 801.69 800.60 799.27 797.75 796.17 794.58 792.84 790.86 788.76 786.69 784.77 783.05 781.45 779.99 778.97 778.34 777.88 777.53 777.00 775.88 774.35 772.84 771.32 769.65 768.13 767.34 767.47 768.19 769.15 770.13 771.02 771.82 772.40 772.47 771.98 771.41 771.06 770.67 769.93 768.94 767.93 767.11 
854.54 853.39 852.23 850.99 849.63 848.16 846.60 845.01 843.35 841.30 838.89 836.38 833.79 831.10 828.35 825.61 822.96 820.30 817.70 815.27 812.73 810.04 807.74 806.46 806.24 806.45 806.35 805.90 805.47 805.23 805.20 805.32 805.47 805.47 805.29 805.03 804.78 804.42 803.88 803.09 802.03 800.77 799.48 798.20 796.84 795.41 793.78 791.90 789.91 788.03 786.35 784.92 783.61 782.39 781.48 780.91 780.46 780.01 779.32 778.08 776.44 774.78 773.19 771.56 770.04 769.08 769.07 769.86 770.93 772.01 772.96 773.78 774.42 774.61 774.13 773.42 772.90 772.34 771.54 770.52 769.38 768.46 
854.92 853.73 852.59 851.33 849.96 848.53 847.07 845.61 844.10 842.21 839.82 837.20 834.49 831.74 828.98 826.30 823.74 821.22 818.80 816.53 814.19 811.74 809.65 808.37 807.86 807.74 807.53 807.10 806.67 806.41 806.34 806.39 806.41 806.35 806.21 806.00 805.71 805.26 804.51 803.41 802.05 800.68 799.48 798.38 797.22 795.95 794.53 792.91 791.23 789.62 788.17 786.90 785.70 784.57 783.71 783.09 782.55 782.01 781.32 780.18 778.58 776.83 775.17 773.58 772.08 771.02 770.93 771.66 772.72 773.81 774.80 775.61 776.29 776.63 776.28 775.44 774.66 773.93 773.09 772.08 770.95 770.07 
855.25 853.94 852.74 851.47 850.14 848.81 847.48 846.16 844.77 843.03 840.77 838.22 835.59 832.91 830.21 827.54 824.89 822.32 820.01 817.86 815.75 813.85 812.29 810.92 809.85 809.29 808.90 808.39 807.86 807.52 807.40 807.35 807.27 807.17 807.02 806.80 806.43 805.77 804.72 803.36 801.97 800.77 799.69 798.62 797.48 796.28 794.98 793.62 792.28 791.00 789.75 788.57 787.40 786.33 785.50 784.87 784.28 783.73 783.11 782.06 780.50 778.79 777.17 775.59 774.04 772.94 772.83 773.50 774.46 775.52 776.49 777.30 777.94 778.34 778.20 777.46 776.57 775.77 774.90 773.91 772.99 772.38 
855.65 854.20 852.92 851.67 850.44 849.20 847.95 846.69 845.35 843.72 841.66 839.34 836.93 834.42 831.84 829.16 826.37 823.67 821.43 819.45 817.60 816.10 814.75 813.15 811.68 810.90 810.38 809.72 809.09 808.66 808.42 808.23 808.06 807.91 807.69 807.34 806.73 805.74 804.49 803.22 802.07 801.05 800.02 798.92 797.75 796.54 795.28 794.01 792.84 791.76 790.68 789.54 788.42 787.48 786.85 786.36 785.83 785.30 784.69 783.68 782.20 780.56 778.94 777.31 775.77 774.78 774.73 775.32 776.18 777.16 778.05 778.76 779.28 779.67 779.77 779.38 778.60 777.75 776.85 775.93 775.32 775.01 
856.10 854.63 853.34 852.15 850.94 849.71 848.46 847.19 845.86 844.31 842.35 840.17 837.94 835.65 833.27 830.70 827.87 825.08 822.90 821.11 819.41 817.85 816.27 814.60 813.19 812.34 811.64 810.79 810.09 809.62 809.29 809.01 808.73 808.44 808.06 807.49 806.62 805.52 804.37 803.28 802.28 801.33 800.29 799.17 798.01 796.81 795.60 794.42 793.27 792.23 791.23 790.17 789.13 788.31 787.81 787.39 786.91 786.45 785.91 785.02 783.68 782.07 780.38 778.68 777.24 776.51 776.58 777.11 777.87 778.72 779.45 780.00 780.43 780.81 781.10 781.08 780.55 779.72 778.82 778.03 777.60 777.31 
856.62 855.18 853.92 852.72 851.48 850.23 848.96 847.69 846.38 844.86 842.93 840.77 838.63 836.49 834.26 831.79 829.08 826.38 824.23 822.47 820.64 818.84 817.14 815.68 814.52 813.61 812.70 811.68 810.81 810.22 809.86 809.57 809.14 808.59 808.01 807.31 806.42 805.45 804.43 803.35 802.31 801.28 800.22 799.15 798.05 796.93 795.84 794.78 793.69 792.65 791.70 790.79 789.85 788.99 788.40 787.92 787.41 786.98 786.56 785.89 784.79 783.32 781.59 779.84 778.49 777.97 778.14 778.67 779.38 780.07 780.64 781.09 781.51 781.93 782.33 782.49 782.20 781.54 780.75 780.03 779.50 778.95 
857.21 855.78 854.49 853.26 851.99 850.73 849.46 848.19 846.89 845.42 843.56 841.48 839.42 837.29 834.93 832.41 829.96 827.54 825.44 823.57 821.49 819.49 817.87 816.67 815.65 814.65 813.60 812.49 811.47 810.72 810.24 809.79 809.19 808.47 807.76 807.01 806.15 805.18 804.14 803.03 801.88 800.70 799.62 798.66 797.66 796.67 795.74 794.84 793.91 792.95 792.06 791.27 790.40 789.45 788.76 788.26 787.67 787.12 786.65 786.11 785.35 784.18 782.56 780.86 779.68 779.27 779.40 779.88 780.52 781.12 781.63 782.08 782.51 782.97 783.41 783.59 783.44 782.98 782.32 781.58 780.85 780.10 
857.87 856.40 855.05 853.77 852.50 851.23 849.97 848.69 847.40 846.01 844.37 842.47 840.39 838.02 835.34 832.77 830.65 828.62 826.61 824.63 822.34 820.17 818.68 817.75 816.75 815.59 814.36 813.10 812.01 811.16 810.49 809.86 809.15 808.38 807.55 806.61 805.56 804.42 803.24 802.12 800.99 799.81 798.75 797.84 796.94 796.07 795.29 794.55 793.79 793.02 792.24 791.45 790.56 789.72 789.16 788.70 788.05 787.29 786.61 786.01 785.40 784.55 783.29 781.88 780.93 780.59 780.64 780.95 781.43 781.96 782.47 782.94 783.38 783.82 784.22 784.40 784.32 783.99 783.38 782.60 781.77 780.95 
858.55 857.04 855.62 854.29 853.02 851.75 850.47 849.18 847.88 846.60 845.27 843.52 841.18 838.39 835.48 833.03 831.20 829.45 827.52 825.45 823.14 820.99 819.72 819.06 818.03 816.58 815.05 813.61 812.44 811.47 810.66 809.92 809.13 808.22 807.15 805.93 804.64 803.32 802.00 800.83 799.78 798.72 797.72 796.82 796.00 795.27 794.63 793.99 793.35 792.69 791.95 791.12 790.31 789.76 789.41 789.02 788.43 787.67 786.89 786.20 785.66 785.04 784.08 782.98 782.24 782.00 782.03 782.11 782.32 782.73 783.21 783.68 784.11 784.48 784.76 784.88 784.82 784.53 783.97 783.23 782.39 781.53 
859.17 857.69 856.22 854.84 853.54 852.26 850.95 849.62 848.30 847.10 845.95 844.15 841.47 838.44 835.57 833.31 831.60 829.86 827.84 825.73 823.65 821.80 820.72 820.22 819.24 817.60 815.78 814.21 812.91 811.73 810.74 809.88 808.94 807.78 806.40 804.94 803.46 802.01 800.65 799.43 798.34 797.33 796.40 795.59 794.88 794.27 793.75 793.24 792.66 791.91 791.11 790.44 789.91 789.54 789.22 788.84 788.41 787.89 787.25 786.66 786.30 785.91 785.13 784.30 783.81 783.64 783.58 783.35 783.28 783.56 783.95 784.33 784.62 784.80 784.92 784.99 784.93 784.66 784.17 783.49 782.68 781.83 
859.69 858.25 856.78 855.36 854.02 852.71 851.36 850.02 848.71 847.55 846.34 844.39 841.64 838.70 835.98 833.78 831.94 829.96 827.77 825.65 823.78 822.27 821.41 820.96 820.13 818.67 816.76 814.84 813.26 811.89 810.67 809.56 808.46 807.11 805.50 803.85 802.21 800.65 799.26 797.99 796.78 795.69 794.82 794.13 793.57 793.06 792.61 792.17 791.54 790.69 790.00 789.65 789.39 789.06 788.65 788.26 787.95 787.62 787.21 786.82 786.62 786.43 785.98 785.49 785.19 784.97 784.72 784.36 784.20 784.31 784.49 784.64 784.69 784.66 784.64 784.65 784.61 784.44 784.04 783.38 782.57 781.80 
860.15 858.65 857.16 855.73 854.39 853.07 851.73 850.41 849.17 848.01 846.62 844.59 842.07 839.41 836.86 834.61 832.50 830.22 827.83 825.58 823.69 822.42 821.78 821.34 820.56 819.31 817.52 815.29 813.35 811.84 810.39 809.02 807.72 806.24 804.51 802.72 801.00 799.39 797.90 796.52 795.21 794.09 793.27 792.68 792.21 791.71 791.20 790.66 789.93 789.21 788.82 788.64 788.47 788.21 787.82 787.45 787.21 786.96 786.70 786.51 786.40 786.25 785.99 785.71 785.48 785.22 784.95 784.73 784.58 784.47 784.40 784.28 784.09 783.92 783.82 783.74 783.71 783.62 783.31 782.65 781.85 781.21 
860.65 858.94 857.35 855.92 854.61 853.34 852.04 850.78 849.61 848.36 846.74 844.65 842.31 839.90 837.55 835.36 833.15 830.77 828.30 825.88 823.84 822.56 821.86 821.23 820.42 819.24 817.57 815.33 813.18 811.53 809.89 808.29 806.83 805.23 803.44 801.62 799.90 798.26 796.68 795.17 793.82 792.75 791.99 791.43 790.89 790.26 789.60 788.91 788.16 787.66 787.47 787.32 787.14 786.90 786.60 786.36 786.25 786.12 785.95 785.88 785.79 785.58 785.33 785.11 784.91 784.70 784.53 784.43 784.30 784.07 783.79 783.39 782.92 782.60 782.45 782.33 782.21 782.01 781.60 780.95 780.27 779.80 
861.12 859.23 857.51 856.04 854.74 853.49 852.24 850.99 849.81 848.48 846.73 844.58 842.26 839.93 837.66 835.42 833.14 830.94 828.70 826.36 824.27 822.78 821.62 820.58 819.78 818.70 817.01 814.85 812.75 810.99 809.21 807.47 805.90 804.21 802.38 800.60 798.91 797.24 795.62 794.05 792.66 791.59 790.84 790.19 789.51 788.77 787.99 787.19 786.48 786.08 785.92 785.78 785.56 785.26 785.03 784.97 785.04 785.08 785.07 785.00 784.82 784.57 784.36 784.23 784.11 783.95 783.83 783.76 783.59 783.25 782.79 782.19 781.51 780.99 780.71 780.48 780.16 779.75 779.21 778.58 778.04 777.73 
861.50 859.53 857.71 856.17 854.85 853.61 852.35 851.05 849.74 848.32 846.53 844.37 842.07 839.79 837.43 834.93 832.49 830.46 828.53 826.42 824.42 822.76 821.20 819.87 818.99 817.88 816.15 814.17 812.23 810.35 808.46 806.66 804.95 803.13 801.29 799.58 797.92 796.28 794.65 793.05 791.60 790.49 789.66 788.85 788.02 787.22 786.38 785.54 784.80 784.37 784.24 784.11 783.84 783.52 783.37 783.42 783.57 783.79 783.94 783.89 783.64 783.38 783.23 783.20 783.15 783.01 782.88 782.70 782.34 781.84 781.23 780.51 779.72 779.05 778.58 778.19 777.74 777.24 776.67 776.05 775.54 775.27 
861.85 859.85 857.95 856.32 854.96 853.71 852.42 851.06 849.62 848.03 846.14 844.00 841.79 839.52 837.01 834.27 831.70 829.67 827.92 826.03 824.19 822.50 820.86 819.47 818.30 816.91 815.23 813.49 811.69 809.74 807.73 805.78 803.85 801.94 800.20 798.58 796.93 795.29 793.65 792.05 790.58 789.42 788.50 787.58 786.62 785.69 784.80 783.94 783.14 782.63 782.44 782.31 782.11 781.94 781.89 781.94 782.09 782.35 782.58 782.57 782.37 782.19 782.11 782.12 782.08 781.91 781.64 781.20 780.60 779.91 779.14 778.27 777.38 776.62 776.10 775.68 775.21 774.70 774.12 773.49 772.95 772.65 
862.23 860.20 858.24 856.49 855.05 853.73 852.38 851.00 849.55 847.87 845.87 843.75 841.59 839.25 836.55 833.57 830.86 828.91 827.38 825.67 823.90 822.20 820.56 819.10 817.59 815.93 814.32 812.72 810.97 809.06 806.97 804.80 802.74 800.84 799.16 797.53 795.86 794.20 792.58 791.01 789.58 788.39 787.43 786.50 785.45 784.34 783.35 782.50 781.81 781.37 781.00 780.65 780.51 780.58 780.65 780.68 780.77 780.94 781.10 781.11 781.02 780.98 781.02 781.04 780.88 780.51 779.95 779.24 778.47 777.65 776.78 775.83 774.82 773.98 773.48 773.10 772.67 772.16 771.58 770.94 770.37 770.01 
862.60 860.54 858.51 856.61 854.99 853.54 852.14 850.78 849.40 847.74 845.70 843.52 841.33 838.94 836.14 833.03 830.37 828.72 827.38 825.63 823.74 821.92 820.22 818.64 816.92 815.16 813.55 811.87 810.04 808.11 806.00 803.84 801.82 799.90 798.09 796.35 794.67 793.07 791.52 790.03 788.64 787.44 786.40 785.36 784.14 782.95 782.06 781.36 780.91 780.69 780.24 779.59 779.27 779.36 779.53 779.59 779.59 779.62 779.64 779.64 779.64 779.72 779.82 779.71 779.24 778.57 777.78 776.93 776.07 775.22 774.35 773.39 772.30 771.35 770.79 770.48 770.12 769.62 769.03 768.38 767.78 767.36 
862.86 860.76 858.60 856.48 854.64 853.12 851.74 850.41 849.03 847.36 845.24 842.97 840.81 838.54 835.89 833.02 830.69 829.26 827.80 825.82 823.77 821.85 820.07 818.33 816.49 814.66 812.89 811.07 809.18 807.19 805.06 802.95 800.97 799.01 797.04 795.16 793.52 792.03 790.56 789.10 787.73 786.53 785.38 784.09 782.73 781.71 781.11 780.65 780.34 780.21 779.81 779.12 778.63 778.49 778.55 778.56 778.48 778.32 778.22 778.23 778.24 778.28 778.24 777.83 777.09 776.28 775.43 774.53 773.64 772.78 771.92 770.97 769.86 768.77 768.06 767.79 767.54 767.08 766.49 765.83 765.20 764.73 
862.94 860.72 858.39 856.11 854.19 852.66 851.21 849.71 848.20 846.48 844.38 842.18 840.14 838.11 835.88 833.48 831.45 829.98 828.25 826.09 823.99 822.03 820.16 818.26 816.23 814.22 812.28 810.42 808.57 806.57 804.44 802.32 800.28 798.21 796.04 794.00 792.37 791.00 789.59 788.17 786.82 785.59 784.30 782.86 781.65 780.94 780.57 780.23 779.89 779.52 779.02 778.51 778.15 777.88 777.68 777.55 777.41 777.12 776.90 776.85 776.75 776.55 776.21 775.60 774.80 773.96 773.09 772.19 771.25 770.35 769.49 768.57 767.48 766.28 765.38 765.05 764.91 764.53 763.94 763.28 762.64 762.17 
862.83 860.47 858.09 855.79 853.85 852.34 850.83 849.10 847.33 845.52 843.50 841.40 839.45 837.60 835.75 833.83 832.13 830.63 828.77 826.58 824.47 822.45 820.45 818.36 816.09 813.86 811.78 809.89 808.05 806.06 804.00 801.88 799.68 797.35 794.94 792.76 791.12 789.83 788.51 787.17 785.88 784.57 783.07 781.62 780.66 780.21 779.97 779.65 779.13 778.38 777.64 777.23 777.07 776.88 776.65 776.49 776.31 776.01 775.70 775.45 775.10 774.61 774.04 773.37 772.58 771.67 770.76 769.86 768.90 767.95 767.05 766.16 765.12 763.88 762.80 762.31 762.20 761.95 761.45 760.82 760.15 759.65 
862.64 860.25 857.88 855.56 853.54 852.04 850.73 849.16 847.35 845.37 843.26 841.11 839.15 837.40 835.77 834.22 832.83 831.37 829.54 827.43 825.23 823.04 820.84 818.56 816.16 813.79 811.49 809.38 807.45 805.50 803.51 801.44 799.21 796.76 794.20 791.87 790.07 788.68 787.39 786.18 785.02 783.61 781.92 780.43 779.46 778.95 778.68 778.30 777.67 776.79 775.84 775.26 775.12 775.17 775.22 775.21 775.02 774.71 774.35 773.89 773.27 772.59 771.92 771.19 770.37 769.45 768.47 767.53 766.58 765.59 764.64 763.74 762.77 761.63 760.54 759.97 759.85 759.65 759.13 758.40 757.61 757.07 
862.47 860.09 857.72 855.37 853.24 851.64 850.48 849.29 847.82 846.00 843.88 841.67 839.72 838.05 836.53 835.11 833.73 832.25 830.48 828.36 826.03 823.64 821.21 818.76 816.33 813.87 811.34 808.98 806.86 804.86 802.91 800.96 798.97 796.78 794.33 791.84 789.68 787.99 786.59 785.46 784.38 782.84 781.05 779.56 778.45 777.62 777.01 776.39 775.68 774.92 773.98 773.15 772.91 773.16 773.42 773.49 773.38 773.08 772.68 772.13 771.37 770.57 769.83 769.04 768.20 767.28 766.23 765.21 764.27 763.30 762.31 761.42 760.60 759.69 758.75 758.20 757.99 757.58 756.74 755.72 754.87 754.47 
862.33 859.94 857.56 855.20 852.98 851.20 849.96 848.95 847.84 846.47 844.72 842.74 840.89 839.18 837.59 836.12 834.67 833.09 831.19 828.93 826.51 824.03 821.46 818.84 816.34 813.86 811.34 808.91 806.54 804.31 802.28 800.35 798.55 796.74 794.65 792.16 789.72 787.82 786.32 785.15 784.10 782.59 780.92 779.58 778.42 777.36 776.31 775.24 774.33 773.65 772.93 772.15 771.69 771.55 771.39 771.30 771.30 771.12 770.80 770.31 769.56 768.65 767.78 766.92 766.06 765.15 764.07 763.02 762.08 761.15 760.24 759.45 758.78 757.99 757.09 756.43 755.93 755.14 753.98 752.82 752.12 751.95 
862.21 859.80 857.41 855.03 852.74 850.78 849.42 848.41 847.42 846.35 845.06 843.51 841.83 840.11 838.39 836.79 835.24 833.49 831.31 828.85 826.41 823.96 821.37 818.72 816.21 813.83 811.47 809.09 806.54 803.99 801.74 799.75 797.96 796.33 794.52 792.18 789.66 787.74 786.32 785.13 784.16 783.02 781.78 780.63 779.45 778.28 777.05 775.73 774.64 773.89 773.18 772.41 771.68 770.71 769.59 769.04 768.99 768.91 768.74 768.45 767.87 766.98 765.98 765.02 764.13 763.24 762.22 761.17 760.23 759.40 758.62 757.94 757.33 756.51 755.54 754.62 753.76 752.71 751.47 750.30 749.66 749.54 
862.09 859.67 857.26 854.87 852.53 850.45 848.92 847.85 846.86 845.87 844.79 843.50 841.99 840.45 838.87 837.17 835.31 833.18 830.76 828.22 825.81 823.44 820.96 818.49 816.16 813.91 811.65 809.29 806.68 803.93 801.52 799.51 797.68 796.00 794.19 791.96 789.53 787.63 786.31 785.15 784.27 783.47 782.60 781.65 780.49 779.35 778.26 777.04 775.90 774.97 774.02 772.98 771.78 770.10 768.27 767.08 766.69 766.60 766.51 766.43 766.20 765.54 764.53 763.45 762.53 761.76 760.86 759.83 758.88 758.13 757.44 756.77 756.11 755.28 754.30 753.30 752.30 751.19 749.91 748.55 747.63 747.32 
861.95 859.55 857.14 854.73 852.36 850.17 848.47 847.28 846.30 845.30 844.26 843.04 841.61 840.19 838.78 837.00 834.74 832.23 829.68 827.22 824.96 822.76 820.46 818.24 816.15 814.01 811.80 809.48 806.93 804.28 801.94 799.91 797.92 795.95 793.94 791.79 789.53 787.65 786.30 785.12 784.19 783.47 782.76 781.97 780.86 779.74 778.83 777.77 776.59 775.55 774.52 773.17 771.41 769.32 767.22 765.50 764.54 764.30 764.37 764.58 764.63 764.15 763.17 761.94 760.90 760.23 759.62 758.81 757.83 757.00 756.31 755.59 754.79 753.89 753.04 752.33 751.50 750.30 748.78 747.15 745.90 745.36 
861.75 859.38 856.99 854.60 852.21 849.93 848.03 846.72 845.72 844.73 843.70 842.53 841.08 839.48 837.80 835.74 833.31 830.77 828.31 825.99 823.93 821.96 819.94 818.02 816.13 814.11 811.97 809.69 807.31 805.00 802.82 800.66 798.38 796.08 793.93 791.95 789.92 788.01 786.43 785.04 783.95 783.23 782.67 782.00 780.88 779.64 778.65 777.60 776.40 775.39 774.49 773.16 771.16 768.86 766.60 764.47 762.90 762.37 762.71 763.23 763.28 762.78 761.86 760.42 758.98 758.17 757.88 757.48 756.62 755.66 754.84 754.03 753.11 752.15 751.38 750.91 750.28 749.09 747.49 745.77 744.32 743.56 
861.49 859.15 856.79 854.42 852.04 849.71 847.66 846.20 845.13 844.09 843.01 841.77 840.14 838.18 836.02 833.69 831.38 829.14 826.89 824.74 822.84 821.06 819.30 817.72 816.12 814.27 812.22 809.96 807.69 805.63 803.50 801.12 798.65 796.30 794.29 792.54 790.70 788.74 786.85 785.14 783.86 783.12 782.71 782.16 781.07 779.70 778.43 777.21 776.10 775.25 774.59 773.59 771.71 769.31 766.87 764.49 762.49 761.56 761.78 762.19 762.04 761.56 760.76 759.20 757.24 755.92 755.53 755.38 754.85 753.99 753.02 752.00 750.98 750.07 749.29 748.68 748.05 747.13 745.86 744.33 742.83 741.84 
860.95 858.63 856.29 853.95 851.61 849.28 847.14 845.45 844.19 843.04 841.80 840.33 838.43 836.21 833.89 831.59 829.49 827.54 825.59 823.67 821.88 820.20 818.63 817.28 815.90 814.24 812.31 810.15 807.95 805.85 803.62 801.17 798.76 796.64 794.90 793.28 791.50 789.53 787.48 785.56 784.11 783.30 782.94 782.51 781.61 780.34 778.86 777.42 776.36 775.69 775.17 774.38 772.77 770.48 768.02 765.60 763.48 762.15 761.60 761.28 760.91 760.50 759.84 758.41 756.25 754.34 753.29 752.82 752.45 751.86 750.92 749.69 748.58 747.76 746.94 746.09 745.35 744.62 743.69 742.52 741.21 740.10 
859.89 857.57 855.27 852.96 850.65 848.35 846.13 844.17 842.60 841.28 839.91 838.23 836.18 833.95 831.74 829.66 827.80 826.09 824.40 822.69 821.01 819.46 818.05 816.78 815.47 813.94 812.17 810.15 807.98 805.72 803.39 801.04 798.86 797.01 795.37 793.76 792.01 790.05 787.95 785.98 784.47 783.64 783.24 782.83 782.24 781.30 779.97 778.49 777.30 776.51 775.87 775.07 773.71 771.74 769.42 767.07 764.98 763.40 762.07 760.92 760.14 759.58 758.98 757.83 755.85 753.74 752.09 750.86 750.06 749.42 748.60 747.44 746.31 745.47 744.59 743.57 742.68 741.92 741.12 740.19 739.12 738.01 
858.81 856.39 854.01 851.66 849.35 847.06 844.80 842.65 840.76 839.19 837.68 835.90 833.89 831.89 829.95 828.12 826.45 824.89 823.31 821.68 820.11 818.75 817.48 816.21 814.94 813.54 811.88 809.90 807.65 805.28 803.00 800.89 798.95 797.19 795.51 793.80 791.99 790.01 787.98 786.12 784.69 783.85 783.33 782.88 782.55 782.08 781.24 780.06 778.74 777.55 776.50 775.49 774.29 772.67 770.64 768.43 766.36 764.62 762.99 761.41 760.12 759.13 758.35 757.33 755.65 753.70 751.87 750.15 748.66 747.46 746.44 745.38 744.25 743.26 742.26 741.17 740.16 739.26 738.44 737.55 736.50 735.33 
858.19 855.61 853.06 850.56 848.15 845.81 843.52 841.28 839.16 837.28 835.59 833.84 832.08 830.45 828.82 827.13 825.48 823.92 822.34 820.74 819.35 818.18 816.95 815.63 814.33 812.90 811.20 809.19 806.91 804.58 802.52 800.73 798.96 797.16 795.32 793.37 791.36 789.36 787.48 785.85 784.61 783.82 783.24 782.83 782.65 782.49 782.12 781.39 780.23 778.77 777.24 775.91 774.70 773.29 771.60 769.66 767.60 765.74 764.09 762.45 760.88 759.47 758.30 757.13 755.59 753.78 751.97 750.16 748.40 746.69 745.11 743.77 742.63 741.50 740.31 739.09 737.90 736.78 735.80 734.80 733.59 732.26 
857.85 855.20 852.56 849.93 847.37 844.91 842.54 840.17 837.86 835.76 833.92 832.32 830.86 829.48 828.06 826.49 824.82 823.16 821.52 820.03 818.84 817.76 816.49 815.10 813.59 811.91 810.06 808.06 805.92 803.82 802.02 800.43 798.75 796.94 794.94 792.74 790.51 788.44 786.67 785.21 784.17 783.54 783.10 782.80 782.64 782.54 782.38 781.93 781.07 779.70 778.01 776.47 775.10 773.66 772.17 770.56 768.72 766.88 765.23 763.60 761.96 760.35 758.84 757.38 755.74 753.93 752.14 750.45 748.77 746.86 744.79 743.05 741.83 740.69 739.31 737.85 736.41 735.07 733.87 732.67 731.30 729.96 
857.55 854.90 852.22 849.54 846.92 844.42 841.90 839.31 836.81 834.54 832.56 831.00 829.73 828.53 827.29 825.94 824.38 822.64 820.94 819.51 818.41 817.29 815.97 814.45 812.70 810.80 808.85 806.87 804.88 803.01 801.39 799.88 798.26 796.44 794.33 791.97 789.57 787.46 785.79 784.45 783.51 783.07 782.83 782.64 782.48 782.37 782.22 781.79 781.02 779.86 778.36 776.84 775.37 773.89 772.45 771.04 769.49 767.85 766.20 764.54 762.87 761.21 759.58 757.94 756.15 754.29 752.62 751.15 749.54 747.50 745.27 743.33 741.92 740.68 739.24 737.73 736.26 734.87 733.53 732.17 730.78 729.51 
857.24 854.55 851.81 849.14 846.65 844.14 841.45 838.68 836.01 833.53 831.43 829.89 828.76 827.69 826.57 825.38 823.98 822.30 820.59 819.12 817.90 816.68 815.31 813.68 811.84 809.89 807.90 805.93 804.00 802.16 800.51 799.02 797.49 795.67 793.42 790.89 788.42 786.45 785.09 783.97 783.13 782.75 782.53 782.36 782.20 782.05 781.78 781.21 780.44 779.44 778.15 776.75 775.33 773.86 772.42 771.05 769.68 768.27 766.73 765.10 763.45 761.85 760.26 758.60 756.80 755.02 753.48 752.12 750.53 748.53 746.43 744.48 742.85 741.40 739.96 738.55 737.17 735.81 734.42 732.96 731.52 730.18 
856.88 854.10 851.35 848.87 846.49 843.91 841.12 838.28 835.50 832.91 830.80 829.30 828.18 827.11 825.97 824.79 823.48 821.97 820.34 818.82 817.39 815.98 814.54 812.92 811.15 809.26 807.28 805.34 803.40 801.42 799.55 797.93 796.43 794.65 792.28 789.63 787.27 785.68 784.76 783.93 783.16 782.66 782.32 782.08 781.84 781.44 780.81 780.06 779.34 778.49 777.37 776.14 774.86 773.43 771.92 770.45 769.04 767.82 766.72 765.42 763.95 762.44 760.91 759.30 757.59 755.92 754.42 753.01 751.42 749.59 747.70 745.85 744.18 742.67 741.20 739.78 738.40 737.00 735.55 734.03 732.51 731.05 
856.39 853.58 851.06 848.78 846.37 843.67 840.84 838.01 835.24 832.76 830.81 829.20 827.79 826.55 825.35 824.10 822.81 821.50 820.08 818.60 817.00 815.36 813.82 812.23 810.54 808.73 806.81 804.91 802.98 800.92 798.81 796.90 795.23 793.39 791.03 788.51 786.56 785.45 784.69 783.90 783.14 782.54 782.09 781.69 781.12 780.25 779.22 778.32 777.57 776.75 775.85 774.94 773.94 772.62 770.86 768.98 767.43 766.51 766.02 765.28 764.16 762.87 761.45 759.92 758.33 756.76 755.25 753.74 752.10 750.34 748.58 746.86 745.34 743.95 742.46 740.94 739.51 738.08 736.59 735.05 733.51 731.99 
855.81 853.25 851.00 848.73 846.17 843.41 840.57 837.78 835.12 832.90 831.21 829.48 827.62 825.99 824.59 823.26 821.99 820.87 819.71 818.39 816.72 814.89 813.20 811.59 809.96 808.21 806.37 804.50 802.60 800.56 798.34 796.18 794.30 792.37 790.17 788.05 786.60 785.75 784.90 783.93 783.07 782.35 781.68 780.89 779.84 778.58 777.41 776.49 775.64 774.74 773.94 773.31 772.63 771.41 769.30 767.07 765.67 765.09 764.87 764.43 763.65 762.70 761.53 760.14 758.64 757.09 755.58 754.05 752.36 750.63 749.03 747.51 746.12 744.80 743.36 741.90 740.49 739.06 737.57 736.04 734.49 732.95 
855.42 853.19 851.02 848.60 845.94 843.15 840.34 837.62 835.11 833.16 831.72 830.03 827.90 825.85 824.16 822.66 821.36 820.32 819.27 818.00 816.35 814.49 812.69 811.02 809.38 807.65 805.86 804.04 802.18 800.21 798.08 796.04 794.25 792.38 790.40 788.63 787.33 786.41 785.46 784.38 783.29 782.21 781.06 779.78 778.42 777.12 776.00 775.04 774.12 773.17 772.33 771.71 771.17 770.05 767.95 765.92 764.81 764.17 763.73 763.23 762.59 761.88 760.96 759.68 758.12 756.51 755.03 753.61 751.99 750.35 748.96 747.64 746.33 745.03 743.78 742.56 741.29 739.93 738.46 736.91 735.36 733.81 
855.28 853.21 850.95 848.41 845.70 842.92 840.18 837.51 835.13 833.45 832.23 830.67 828.57 826.40 824.50 822.74 821.15 819.87 818.70 817.38 815.80 814.01 812.19 810.48 808.79 807.05 805.28 803.51 801.75 799.97 798.17 796.53 795.02 793.32 791.51 789.84 788.40 787.23 786.17 784.98 783.62 782.10 780.50 778.93 777.55 776.37 775.27 774.17 773.15 772.21 771.31 770.55 769.94 768.96 767.25 765.69 764.66 763.73 762.90 762.16 761.47 760.76 759.83 758.51 756.92 755.35 754.04 752.84 751.36 749.78 748.44 747.20 745.99 744.85 743.82 742.87 741.83 740.60 739.15 737.59 736.05 734.55 
855.10 853.05 850.75 848.20 845.50 842.76 840.06 837.43 835.20 833.76 832.72 831.28 829.31 827.18 825.10 823.07 821.12 819.40 817.95 816.54 815.03 813.40 811.66 809.94 808.25 806.56 804.89 803.24 801.67 800.23 798.85 797.49 796.09 794.52 792.80 791.11 789.50 788.08 786.83 785.41 783.74 782.01 780.24 778.58 777.16 776.00 774.98 773.94 772.92 771.99 771.04 770.09 769.30 768.35 767.04 765.76 764.65 763.52 762.41 761.45 760.57 759.64 758.50 757.12 755.64 754.29 753.21 752.15 750.76 749.20 747.78 746.53 745.45 744.49 743.64 742.85 742.01 740.92 739.54 738.05 736.60 735.16 
854.82 852.74 850.48 848.07 845.46 842.74 840.00 837.41 835.34 834.04 833.04 831.69 829.81 827.63 825.40 823.22 821.11 819.12 817.34 815.77 814.29 812.83 811.28 809.67 808.10 806.57 805.09 803.64 802.32 801.17 800.01 798.64 797.10 795.46 793.79 792.10 790.41 788.84 787.40 785.64 783.71 781.93 780.16 778.45 776.92 775.72 774.89 774.14 773.27 772.38 771.43 770.46 769.57 768.53 767.28 765.96 764.69 763.46 762.23 761.05 759.87 758.66 757.41 756.09 754.82 753.73 752.76 751.62 750.21 748.63 747.12 745.89 744.92 744.06 743.30 742.58 741.79 740.80 739.55 738.22 736.89 735.52 
854.52 852.49 850.38 848.13 845.63 842.95 840.18 837.57 835.54 834.20 833.12 831.81 830.01 827.80 825.52 823.30 821.16 819.09 817.19 815.54 814.09 812.76 811.42 810.03 808.61 807.18 805.81 804.54 803.42 802.36 801.10 799.50 797.66 795.82 794.13 792.56 790.96 789.36 787.72 785.71 783.66 781.85 780.05 778.30 776.73 775.59 774.96 774.45 773.75 772.95 772.10 771.22 770.29 769.13 767.70 766.14 764.75 763.54 762.30 760.94 759.46 758.00 756.70 755.52 754.44 753.53 752.54 751.26 749.78 748.17 746.61 745.39 744.41 743.51 742.73 741.99 741.15 740.20 739.10 737.88 736.55 735.19 
854.32 852.47 850.51 848.30 845.85 843.26 840.56 837.88 835.70 834.26 833.14 831.85 830.05 827.87 825.66 823.50 821.35 819.29 817.44 815.85 814.46 813.21 812.01 810.78 809.46 808.06 806.73 805.52 804.40 803.14 801.59 799.75 797.76 795.77 794.00 792.49 791.03 789.43 787.65 785.61 783.58 781.67 779.77 778.01 776.58 775.70 775.25 774.87 774.32 773.60 772.82 771.91 770.80 769.45 767.88 766.20 764.72 763.53 762.42 761.14 759.53 757.80 756.25 754.98 753.97 753.09 752.08 750.80 749.36 747.79 746.30 745.05 743.91 742.80 741.84 740.95 740.03 739.09 738.05 736.81 735.34 733.96 
854.36 852.66 850.74 848.47 845.99 843.44 840.76 838.01 835.76 834.32 833.16 831.76 829.86 827.72 825.75 823.83 821.77 819.72 817.90 816.37 815.01 813.73 812.54 811.36 810.08 808.76 807.48 806.22 804.85 803.27 801.49 799.61 797.66 795.67 793.79 792.19 790.68 788.92 787.08 785.32 783.49 781.47 779.41 777.72 776.65 776.10 775.84 775.57 775.10 774.42 773.58 772.55 771.23 769.74 768.17 766.55 765.09 763.86 762.73 761.48 759.87 758.01 756.22 754.71 753.46 752.36 751.24 750.03 748.72 747.33 746.02 744.78 743.48 742.06 740.80 739.73 738.64 737.50 736.33 735.03 733.55 732.25 
854.57 852.93 850.97 848.60 846.06 843.47 840.77 838.11 835.98 834.48 833.08 831.34 829.27 827.26 825.63 824.03 822.14 820.10 818.27 816.74 815.34 813.95 812.66 811.42 810.15 808.93 807.75 806.42 804.82 803.02 801.17 799.33 797.46 795.54 793.63 791.88 790.15 788.09 786.10 784.68 783.36 781.62 779.60 778.02 777.17 776.80 776.68 776.47 776.01 775.25 774.28 773.13 771.84 770.53 769.11 767.64 766.23 764.90 763.56 762.11 760.47 758.68 756.90 755.23 753.65 752.09 750.63 749.25 747.93 746.75 745.59 744.30 742.88 741.30 739.91 738.76 737.43 735.91 734.44 733.09 731.68 730.45 
854.78 853.21 851.22 848.81 846.25 843.65 841.08 838.69 836.68 834.96 833.15 830.96 828.64 826.77 825.38 823.95 822.13 820.10 818.27 816.71 815.23 813.78 812.37 811.01 809.71 808.56 807.45 806.16 804.52 802.68 800.84 799.01 797.17 795.32 793.44 791.59 789.68 787.49 785.45 784.13 783.16 781.96 780.40 779.04 778.27 777.89 777.71 777.42 776.85 775.93 774.79 773.63 772.58 771.59 770.43 769.06 767.58 766.08 764.60 763.08 761.45 759.68 757.90 756.18 754.42 752.56 750.71 749.02 747.51 746.27 745.04 743.54 741.95 740.42 739.14 737.99 736.61 735.02 733.54 732.17 730.62 729.19 
855.03 853.52 851.59 849.27 846.81 844.32 841.91 839.72 837.71 835.72 833.55 831.00 828.36 826.38 825.06 823.67 821.84 819.83 818.00 816.37 814.83 813.31 811.75 810.20 808.82 807.67 806.57 805.38 803.96 802.31 800.52 798.69 796.87 795.03 793.18 791.28 789.31 787.37 785.67 784.33 783.31 782.38 781.36 780.37 779.64 779.16 778.82 778.38 777.65 776.56 775.32 774.25 773.41 772.62 771.63 770.34 768.77 767.09 765.51 764.02 762.43 760.65 758.86 757.13 755.31 753.36 751.36 749.48 747.77 746.26 744.82 743.18 741.47 739.95 738.64 737.40 736.08 734.82 733.71 732.52 730.97 729.37 
855.38 853.93 852.09 849.89 847.53 845.11 842.74 840.56 838.46 836.30 833.97 831.33 828.53 826.23 824.72 823.35 821.53 819.50 817.59 815.83 814.16 812.49 810.69 808.93 807.47 806.31 805.24 804.17 803.09 801.78 800.20 798.42 796.59 794.75 792.88 790.92 789.03 787.52 786.25 784.95 783.81 782.93 782.25 781.55 780.79 780.20 779.75 779.20 778.39 777.24 776.06 775.18 774.51 773.80 772.86 771.60 770.01 768.21 766.50 764.94 763.32 761.58 759.86 758.13 756.30 754.34 752.34 750.43 748.67 747.03 745.44 743.80 742.10 740.46 738.96 737.53 736.14 735.06 734.22 733.21 731.89 730.39 
