ncols        99
nrows        78
xllcorner    364748.000000000000
yllcorner    4957546.000000000000
cellsize     5.000000000000
NODATA_value -99.00
469.62 466.37 463.38 460.24 457.14 455.63 456.47 458.47 460.68 462.78 464.63 466.07 466.98 467.70 468.24 468.18 467.83 467.86 468.27 468.28 467.59 466.83 466.51 465.96 465.02 464.00 463.22 462.65 462.20 461.75 461.17 460.45 459.89 459.56 459.39 459.50 459.56 459.06 457.74 455.69 454.17 453.70 453.64 453.67 453.80 453.95 453.98 453.61 453.12 452.65 452.14 451.58 450.98 450.27 449.41 448.60 447.55 445.33 443.33 442.78 442.68 442.65 442.72 442.50 442.09 441.67 441.24 440.76 440.13 439.46 438.94 438.93 439.15 439.33 439.27 438.92 438.57 438.46 438.30 437.42 435.76 434.03 432.67 431.94 432.20 432.79 433.74 434.74 435.87 436.77 436.96 436.77 436.59 436.58 436.43 436.30 436.18 436.06 435.88 
470.81 467.80 464.70 461.23 457.76 455.21 454.85 456.48 458.87 460.70 462.00 463.49 464.88 466.01 466.87 467.27 467.24 467.07 466.81 466.42 465.91 465.27 464.70 464.24 463.68 463.14 462.65 462.37 462.17 461.88 461.54 461.19 460.69 460.48 460.81 461.16 460.95 460.50 459.98 458.09 455.47 453.43 452.74 452.68 452.80 452.95 453.11 453.15 452.84 452.39 451.81 451.16 450.45 449.49 448.38 447.73 447.18 445.90 444.21 443.67 443.57 443.41 443.12 442.83 442.43 442.00 441.62 441.33 441.12 440.88 440.58 440.47 440.28 440.02 439.69 439.22 438.76 438.47 438.34 437.96 436.98 435.70 434.41 433.34 432.90 433.35 434.47 436.12 437.26 437.76 437.91 437.77 437.50 437.29 437.12 436.85 436.42 436.18 435.98 
471.76 469.18 466.19 462.83 459.37 456.20 454.77 456.08 457.58 458.44 459.41 460.79 462.30 463.61 464.76 465.82 466.54 466.74 466.34 465.63 464.80 463.72 462.98 462.43 461.88 461.56 461.57 461.76 462.03 461.85 461.54 461.31 461.14 461.10 461.17 461.11 460.75 460.39 460.40 459.76 458.27 456.04 453.07 451.86 451.78 451.85 451.91 452.13 452.53 452.19 451.39 450.63 449.69 448.46 447.42 446.84 446.49 445.98 444.95 444.50 444.15 443.73 443.38 443.10 442.76 442.41 442.09 441.78 441.52 441.19 440.71 440.54 440.60 440.48 440.13 439.68 439.14 438.66 438.40 437.85 436.98 436.11 434.95 433.85 433.70 434.46 435.85 437.52 438.10 438.17 438.17 438.19 438.13 438.01 437.82 437.24 436.57 436.15 435.92 
474.11 471.23 467.89 464.42 460.96 457.55 454.98 454.84 455.79 456.12 456.90 458.22 459.68 461.13 462.40 463.71 464.95 465.44 464.79 463.71 462.50 461.54 460.56 460.11 459.90 459.76 459.96 460.44 460.95 461.18 461.14 461.15 461.07 461.05 461.07 460.93 460.62 460.43 460.21 459.79 459.32 458.42 455.85 452.74 450.79 450.26 450.36 450.82 451.37 451.22 450.63 449.83 448.62 447.36 446.50 445.98 445.58 445.33 445.04 444.68 444.32 443.98 443.60 443.10 442.46 441.83 441.42 441.14 441.01 440.77 440.14 439.79 439.70 439.41 439.19 439.11 438.52 437.88 437.87 437.34 436.40 435.74 435.20 434.61 434.84 436.06 437.52 438.42 438.52 438.52 438.45 438.36 438.18 438.01 437.59 436.81 436.19 435.97 435.83 
475.60 472.64 469.35 465.89 462.41 459.03 456.02 454.05 453.98 453.77 454.38 455.69 457.12 458.54 459.94 461.12 461.85 462.02 461.56 460.67 459.73 458.85 458.08 457.70 457.64 457.73 457.98 458.50 459.01 459.35 459.51 460.01 460.60 460.88 460.83 460.52 460.14 459.97 459.80 459.44 459.02 458.59 457.79 455.64 452.46 449.79 448.86 448.96 449.13 448.92 448.37 447.82 447.17 446.23 445.59 445.13 444.70 444.32 443.88 443.43 443.02 442.62 442.23 441.80 441.40 441.01 440.64 440.29 439.93 439.55 439.16 438.77 438.38 437.99 437.61 437.28 437.00 436.74 436.48 436.25 436.07 435.81 435.44 435.21 435.65 437.16 438.60 438.96 438.83 438.60 438.42 438.27 437.96 437.26 436.87 436.48 436.16 436.00 435.86 
477.11 474.08 470.81 467.36 463.89 460.56 457.68 455.02 452.51 451.35 451.86 453.17 454.64 456.11 457.39 458.27 458.94 459.22 458.79 457.82 456.89 456.12 455.55 455.34 455.28 455.42 455.76 456.30 456.89 457.33 457.69 458.11 458.56 458.94 459.21 459.30 459.17 459.08 458.93 458.52 458.54 458.56 458.18 457.22 455.50 452.68 449.99 448.27 447.60 447.16 446.74 446.33 445.93 445.54 445.14 444.74 444.38 444.14 443.91 443.68 443.40 443.13 442.80 442.42 442.06 441.60 441.19 440.80 440.48 440.24 440.07 439.93 439.81 439.52 439.20 438.94 438.78 438.72 438.17 437.73 437.12 436.22 435.88 436.48 437.66 438.90 439.14 438.96 438.75 438.57 438.34 437.95 437.24 436.39 436.00 435.93 435.97 436.05 435.90 
478.70 475.60 472.36 469.19 466.75 465.02 462.62 458.62 453.97 450.48 450.00 451.19 452.62 453.88 454.79 455.52 456.11 456.52 456.15 455.12 454.15 453.51 453.02 452.88 452.84 453.08 453.61 454.26 454.82 455.29 455.69 456.05 456.48 456.92 457.36 457.67 457.76 457.90 458.12 458.21 458.40 458.54 458.40 458.04 457.24 455.82 453.42 451.36 450.22 449.62 449.38 449.25 449.16 449.09 449.08 448.88 448.48 447.95 447.22 446.89 446.40 445.94 445.38 444.64 444.16 443.54 442.68 441.90 441.63 441.57 441.55 441.66 441.76 441.75 441.48 441.46 441.47 441.34 440.73 439.97 438.90 436.65 435.99 437.44 438.89 439.39 439.25 438.86 438.40 437.66 437.02 436.54 436.19 436.09 436.04 435.87 435.76 435.52 435.44 
480.04 477.17 474.33 472.21 470.27 467.64 464.04 459.92 455.57 451.40 449.07 449.03 450.09 451.08 451.86 452.44 452.93 453.29 452.90 452.17 451.52 450.95 450.60 450.48 450.71 451.20 451.75 452.32 452.86 453.33 453.73 454.14 454.53 455.04 455.49 455.88 456.08 456.22 456.93 457.90 458.25 458.34 458.22 457.98 457.70 457.16 455.66 454.51 453.82 452.97 452.47 452.95 452.99 452.33 451.44 450.75 450.21 449.89 449.60 449.22 448.78 448.33 447.68 446.81 446.27 445.55 444.34 443.18 443.40 444.03 444.07 443.58 443.03 442.84 442.56 442.25 441.92 441.69 441.52 441.17 439.94 437.29 435.93 437.42 439.03 439.21 438.86 438.38 437.85 437.11 436.24 435.79 435.80 435.93 435.76 435.57 435.31 434.72 433.94 
481.67 478.86 476.11 473.98 471.61 468.09 464.27 460.55 456.80 453.19 450.45 448.40 447.79 448.32 449.01 449.45 449.78 450.05 449.92 449.49 448.97 448.48 448.20 448.19 448.56 449.30 449.95 450.40 450.95 451.39 451.78 452.22 452.58 453.13 453.66 454.06 454.34 454.55 455.59 457.08 457.91 458.14 458.03 457.75 457.41 456.90 456.44 456.06 455.59 454.99 454.35 453.75 453.33 452.71 451.60 450.89 450.39 449.96 449.61 449.27 449.02 448.75 448.02 447.12 446.42 445.82 444.85 443.89 444.09 444.48 444.29 443.84 443.36 443.04 442.80 442.54 442.16 441.80 441.63 441.28 440.12 437.61 435.59 436.45 438.58 438.89 438.37 437.50 436.64 436.17 435.69 435.18 435.03 435.09 435.10 434.80 433.78 432.42 431.57 
482.59 480.41 477.88 475.48 472.13 468.28 464.42 460.65 456.69 452.71 449.84 447.28 445.36 444.49 445.31 446.22 447.00 447.39 447.27 446.69 446.16 445.79 445.56 445.67 446.30 447.41 448.26 448.80 449.31 449.63 449.95 450.22 450.55 451.10 451.63 452.22 452.76 453.21 453.81 454.47 455.34 456.27 456.79 456.93 456.66 456.39 455.94 455.54 455.22 454.71 454.10 453.66 453.30 452.80 451.77 451.06 450.55 450.08 449.65 449.28 448.96 448.55 447.99 447.30 446.64 446.10 445.42 444.75 444.66 444.69 444.48 444.02 443.55 443.28 443.02 442.73 442.44 442.12 441.81 441.48 440.68 438.35 435.80 435.34 437.25 437.95 437.10 436.34 436.16 435.95 435.33 434.38 434.17 434.02 433.34 432.62 431.61 430.69 430.39 
482.24 480.24 477.95 475.53 472.28 468.50 464.58 460.64 456.68 452.61 448.44 444.76 441.76 441.12 442.24 442.90 443.64 444.76 445.18 444.70 444.13 443.67 443.06 443.27 444.27 445.52 446.55 447.26 447.67 447.86 448.02 448.22 448.66 449.20 449.71 450.28 450.77 451.11 451.43 452.09 453.02 454.11 454.86 455.41 455.58 455.55 455.37 455.08 454.69 454.28 453.82 453.37 452.86 452.18 451.45 450.94 450.43 449.96 449.58 449.18 448.86 448.46 447.75 447.03 446.42 445.98 445.61 445.26 444.98 444.68 444.27 443.89 443.62 443.40 443.23 442.95 442.64 442.26 441.86 441.51 440.73 438.80 436.48 434.93 435.89 437.23 436.96 436.36 435.86 434.74 433.20 432.73 432.24 431.54 430.77 430.41 429.60 428.87 428.77 
481.25 479.11 476.94 474.58 471.65 468.29 464.95 461.62 457.80 453.57 448.91 444.80 442.17 441.93 441.54 440.10 440.23 441.51 441.83 441.71 441.75 441.69 441.29 441.60 442.89 444.08 444.95 445.61 446.05 446.21 446.33 446.55 447.00 447.46 447.77 447.98 448.37 448.83 449.23 449.86 451.07 452.37 453.34 454.05 454.48 454.55 454.45 454.29 454.12 453.80 453.38 452.94 452.51 451.94 451.29 450.75 450.27 449.83 449.50 449.14 448.84 448.39 447.54 446.82 446.22 445.70 445.29 445.11 444.94 444.53 444.06 443.73 443.61 443.44 443.26 443.03 442.70 442.21 441.83 441.48 440.95 439.86 437.44 434.89 434.13 434.99 435.31 435.31 434.35 432.92 432.11 431.39 430.71 430.10 429.46 428.98 428.36 427.62 427.13 
479.34 477.45 475.56 473.52 470.98 468.20 465.32 462.21 458.75 454.61 450.68 447.75 445.27 443.81 442.64 440.55 438.60 438.13 438.22 438.86 439.36 439.22 438.96 439.39 440.80 442.36 443.17 443.74 444.19 444.42 444.59 444.86 445.29 445.61 445.82 445.80 446.02 446.58 447.23 448.07 449.21 450.61 451.77 452.67 453.24 453.36 453.32 453.27 453.24 453.10 452.81 452.46 452.10 451.68 451.15 450.59 450.10 449.69 449.34 448.98 448.64 448.18 447.39 446.58 445.96 445.49 445.25 445.12 444.90 444.37 443.89 443.69 443.48 443.24 443.16 443.02 442.64 442.11 441.61 441.01 440.23 439.39 438.08 435.61 433.81 433.20 433.05 432.69 432.10 431.33 430.66 430.08 429.57 429.09 428.60 428.11 427.62 427.14 426.62 
476.62 474.74 472.87 471.14 469.34 466.78 464.39 462.32 459.58 456.03 453.18 450.58 447.75 445.08 442.70 440.04 437.43 435.62 436.07 436.94 436.93 436.61 436.39 436.97 438.67 440.44 441.46 441.88 442.18 442.36 442.62 443.08 443.64 444.01 444.04 443.95 444.22 444.80 445.64 446.52 447.55 448.80 450.10 451.14 451.80 452.00 452.06 452.16 452.34 452.30 452.08 451.77 451.52 451.23 450.89 450.44 450.00 449.64 449.29 448.89 448.50 448.10 447.46 446.54 445.68 445.29 445.15 445.04 444.79 444.38 443.95 443.66 443.41 443.19 443.02 442.82 442.35 441.60 440.72 439.84 438.99 438.08 437.18 435.91 434.28 433.06 432.47 431.92 431.26 430.62 430.02 429.49 428.91 428.27 427.53 426.82 426.00 425.19 424.49 
473.91 472.02 470.20 468.62 467.04 465.12 463.12 461.18 459.26 457.23 454.48 451.27 447.85 444.83 442.52 439.87 437.07 435.06 434.52 434.52 434.32 434.08 434.12 434.63 436.27 438.29 439.65 440.09 440.21 440.32 440.70 441.27 441.90 442.33 442.57 442.65 442.94 443.54 444.26 445.04 445.87 446.92 448.12 449.33 450.20 450.60 450.86 450.98 451.18 451.26 451.19 451.04 450.89 450.70 450.34 449.96 449.58 449.21 448.88 448.52 448.11 447.69 447.07 446.19 445.41 444.99 444.90 444.64 444.31 443.97 443.64 443.47 443.20 442.94 442.68 442.20 441.57 440.63 439.35 438.23 437.35 436.35 435.44 434.53 433.37 432.31 431.39 430.25 429.40 428.82 428.36 427.96 427.49 426.76 425.88 425.03 424.14 423.23 422.39 
471.20 469.33 467.62 466.12 464.69 463.28 461.84 460.47 459.03 457.27 454.74 451.42 447.88 444.63 442.36 440.41 438.01 435.39 433.25 432.14 431.74 431.61 431.74 432.19 433.60 435.71 437.56 438.36 438.56 438.74 439.14 439.58 440.09 440.66 441.06 441.35 441.79 442.42 443.05 443.57 444.19 445.05 446.10 447.26 448.34 449.17 449.64 449.91 450.15 450.33 450.34 450.27 450.19 450.02 449.78 449.49 449.12 448.76 448.45 448.14 447.71 447.25 446.71 445.78 444.82 444.58 444.39 444.18 443.87 443.58 443.40 443.27 443.02 442.66 442.24 441.60 440.65 439.40 437.95 436.49 435.12 434.11 433.40 432.66 431.67 430.66 429.87 428.73 427.70 427.12 426.66 426.18 425.73 425.05 424.14 423.16 422.26 421.36 420.43 
468.49 466.67 465.09 463.65 462.26 461.01 459.92 458.87 457.68 456.02 453.77 450.73 447.33 444.16 441.95 440.20 438.40 436.38 434.46 432.51 430.62 429.60 429.54 429.83 430.83 432.74 434.83 436.40 436.78 437.01 437.44 437.84 438.34 438.90 439.38 439.86 440.46 441.13 441.71 442.11 442.61 443.39 444.42 445.49 446.48 447.34 448.05 448.61 449.06 449.38 449.54 449.55 449.50 449.35 449.20 448.99 448.73 448.35 447.99 447.61 446.94 446.27 445.66 444.68 443.88 443.52 443.24 443.05 442.89 442.96 443.04 442.90 442.53 442.00 441.34 440.42 439.30 437.96 436.50 434.95 433.48 432.30 431.46 430.76 429.93 428.93 427.90 426.95 425.98 425.18 424.62 424.26 423.97 423.32 422.37 421.24 420.07 419.04 418.14 
465.78 464.09 462.61 461.21 459.86 458.60 457.19 456.16 455.04 453.12 450.87 448.58 446.00 443.20 441.09 439.29 437.58 436.03 434.11 432.02 430.05 428.56 427.65 427.69 428.64 430.53 432.53 433.93 434.58 434.95 435.43 435.94 436.50 437.09 437.69 438.47 439.31 439.94 440.42 440.79 441.20 441.81 442.75 443.73 444.70 445.66 446.57 447.27 447.83 448.27 448.62 448.80 448.80 448.75 448.64 448.47 448.22 447.84 447.48 447.11 446.27 445.14 443.95 442.75 442.28 442.09 441.94 441.89 441.97 442.06 442.14 442.08 441.65 440.96 440.07 438.98 437.78 436.48 435.08 433.54 432.03 430.68 429.70 428.88 428.08 427.14 426.11 425.19 424.24 423.26 422.70 422.55 422.28 421.58 420.66 419.57 418.30 417.07 416.04 
463.36 461.91 460.72 459.21 457.34 455.52 454.20 453.32 452.40 450.90 448.76 446.21 443.77 441.86 439.99 438.05 436.41 435.28 433.50 431.47 429.61 427.86 426.45 425.88 426.58 428.26 429.96 431.40 432.34 432.88 433.34 433.90 434.57 435.32 436.23 437.20 437.98 438.64 439.10 439.43 439.77 440.20 440.88 441.80 442.91 443.91 444.89 445.76 446.47 446.93 447.24 447.45 447.65 447.77 447.85 447.82 447.61 447.30 446.96 446.36 445.32 443.90 442.33 441.20 440.71 440.35 440.30 440.51 440.65 440.78 441.00 440.96 440.46 439.67 438.73 437.52 436.18 434.93 433.64 432.13 430.55 429.11 428.07 427.11 426.22 425.38 424.46 423.66 422.82 421.88 421.09 420.74 420.54 419.85 418.95 417.93 416.67 415.39 414.45 
462.32 460.58 459.23 458.02 456.82 455.49 453.77 451.84 450.30 448.29 445.75 443.43 441.56 439.86 438.27 436.75 435.72 434.73 433.13 431.54 429.98 428.37 426.49 424.86 424.64 425.98 427.90 429.18 429.98 430.60 431.38 432.18 432.89 433.74 434.76 435.74 436.62 437.35 437.84 438.14 438.39 438.69 439.24 440.02 441.01 442.14 443.34 444.29 444.98 445.43 445.71 445.89 446.05 446.27 446.55 446.81 446.79 446.60 446.23 445.57 444.23 442.32 440.70 439.63 438.95 438.48 438.39 438.59 438.90 439.31 439.55 439.60 439.15 438.13 437.11 436.05 434.84 433.55 432.19 430.77 429.29 427.85 426.63 425.61 424.61 423.67 422.81 422.07 421.38 420.51 419.60 419.11 418.99 418.44 417.41 416.14 414.82 413.71 413.19 
463.66 461.77 460.05 458.73 457.48 456.01 454.30 452.38 450.35 448.27 445.69 443.08 441.06 439.69 438.55 437.42 436.20 434.81 433.44 431.91 430.37 428.93 427.16 425.38 424.36 424.79 425.84 426.87 427.61 428.25 429.22 430.32 431.27 432.27 433.40 434.35 435.13 435.87 436.47 436.82 437.08 437.34 437.77 438.49 439.41 440.55 441.78 442.73 443.41 443.77 443.93 444.01 444.15 444.49 444.98 445.46 445.66 445.60 445.17 444.34 442.75 440.66 439.11 437.96 437.11 436.70 436.58 436.76 437.11 437.62 437.95 438.03 437.64 436.81 435.76 434.55 433.33 431.96 430.58 429.27 427.94 426.63 425.32 424.19 423.16 422.16 421.22 420.40 419.76 419.14 418.44 417.94 417.67 416.73 415.45 414.17 412.97 412.48 412.27 
465.50 463.61 461.76 459.94 458.22 456.51 454.80 453.08 451.20 448.96 446.60 444.28 442.13 440.41 439.08 437.84 436.55 435.08 433.62 432.20 430.70 429.32 427.78 426.10 424.68 423.77 423.77 424.56 425.26 425.92 426.99 428.21 429.50 430.94 432.12 433.01 433.85 434.59 435.10 435.44 435.74 436.05 436.45 437.08 437.91 439.01 440.21 441.15 441.76 442.00 442.08 442.08 442.18 442.53 443.00 443.77 444.45 444.60 444.09 442.94 441.19 439.18 437.36 436.12 435.39 434.97 434.73 434.78 435.07 435.75 436.29 436.28 435.96 435.20 434.06 432.82 431.64 430.39 429.00 427.66 426.63 425.49 424.10 422.83 421.73 420.72 419.77 418.92 418.25 417.65 416.99 416.41 415.77 414.69 413.42 412.44 411.93 411.67 411.37 
467.38 465.47 463.57 461.48 459.32 457.43 455.55 453.58 451.79 450.10 447.92 445.58 443.35 441.43 439.83 438.40 436.79 435.25 433.78 432.35 430.99 429.71 428.28 426.26 424.49 423.60 423.02 422.61 422.94 423.73 424.88 426.29 428.10 429.72 430.78 431.68 432.54 433.20 433.70 434.11 434.45 434.77 435.16 435.71 436.48 437.51 438.62 439.45 439.99 440.17 440.19 440.16 440.28 440.68 441.36 442.24 443.10 443.39 442.79 441.44 439.76 438.04 436.34 434.83 433.97 433.46 433.17 433.13 433.44 433.97 434.40 434.38 434.04 433.44 432.40 431.13 429.78 428.34 427.07 426.13 425.20 424.05 422.79 421.56 420.48 419.43 418.47 417.58 416.84 416.10 415.43 414.73 413.88 412.75 411.68 411.23 411.05 410.80 410.41 
469.13 467.07 464.97 462.74 460.27 457.99 455.93 453.94 452.18 450.85 449.13 446.91 444.63 442.57 440.77 439.13 437.42 435.83 434.31 432.66 431.15 429.58 427.91 426.11 424.33 423.04 422.38 422.11 422.24 422.70 423.44 424.91 426.88 428.59 429.60 430.36 430.99 431.61 432.23 432.84 433.31 433.59 433.81 434.17 434.90 435.97 436.97 437.70 438.16 438.30 438.31 438.28 438.41 438.82 439.62 440.59 441.42 441.74 441.11 439.84 438.46 436.86 435.22 433.74 432.76 432.17 431.83 431.85 432.11 432.42 432.59 432.56 432.25 431.55 430.51 429.38 428.15 426.66 425.48 424.55 423.53 422.44 421.35 420.25 419.17 418.13 417.16 416.24 415.37 414.57 413.90 413.17 412.20 410.94 410.46 410.33 410.09 409.77 409.39 
470.46 468.39 466.24 463.72 460.88 458.40 456.30 454.29 452.49 451.16 449.72 448.06 445.92 443.74 441.78 439.79 438.11 436.59 434.90 433.01 431.29 429.66 427.90 426.07 424.20 422.58 421.76 421.42 421.08 421.34 422.22 423.68 425.68 427.40 428.32 429.05 429.61 430.00 430.63 431.57 432.23 432.52 432.59 432.72 433.31 434.21 434.93 435.57 436.15 436.35 436.37 436.39 436.58 437.04 437.67 438.41 439.34 439.85 439.31 438.13 436.78 435.31 433.90 432.64 431.55 430.80 430.38 430.33 430.45 430.66 430.72 430.68 430.40 429.72 428.82 427.77 426.48 425.07 423.98 422.99 421.91 420.80 419.69 418.63 417.63 416.68 415.82 414.93 414.04 413.18 412.36 411.57 410.83 410.18 409.84 409.55 409.19 408.81 408.44 
471.46 469.30 467.08 464.25 461.30 458.84 456.66 454.63 452.67 450.76 449.04 447.46 445.98 444.37 442.16 439.74 437.71 436.12 434.69 432.95 431.16 429.34 427.62 426.10 424.38 422.55 421.26 420.67 420.02 419.56 420.26 422.14 424.19 425.59 426.58 427.43 428.17 428.76 429.59 430.48 431.13 431.43 431.45 431.41 431.84 432.52 433.03 433.46 433.86 434.04 434.13 434.25 434.54 434.98 435.44 435.82 436.34 436.88 436.78 436.28 435.14 433.66 432.36 431.44 430.45 429.44 428.89 428.78 428.86 428.84 428.80 428.72 428.46 427.83 426.98 425.86 424.67 423.54 422.40 421.24 420.17 419.07 417.98 416.96 416.09 415.24 414.37 413.52 412.63 411.67 410.73 409.98 409.48 409.29 409.03 408.68 408.26 407.89 407.53 
472.15 469.66 467.15 464.24 461.47 459.24 457.09 455.01 453.09 451.04 448.85 447.07 446.18 445.35 443.55 440.68 437.41 435.15 433.74 432.29 430.63 428.93 427.20 425.36 423.61 422.31 421.12 419.74 418.51 418.34 418.87 420.43 422.41 423.96 424.88 425.62 426.52 427.48 428.38 429.24 429.97 430.40 430.42 430.28 430.46 430.78 431.19 431.55 431.70 431.80 432.08 432.31 432.73 433.21 433.76 434.21 434.61 434.77 434.45 434.03 433.38 432.10 430.81 429.98 429.05 428.09 427.46 427.06 426.90 426.84 426.79 426.67 426.43 425.85 424.93 424.02 423.00 421.82 420.66 419.56 418.48 417.49 416.49 415.48 414.42 413.49 412.62 411.90 411.17 410.23 409.32 408.81 408.61 408.45 408.18 407.79 407.43 407.04 406.60 
472.05 469.53 467.04 464.43 461.91 459.66 457.49 455.43 453.59 451.50 449.34 447.60 446.88 446.42 444.96 442.10 439.04 436.38 434.38 432.77 431.51 429.96 428.24 426.40 424.21 422.13 420.72 419.66 418.35 417.75 417.68 418.32 419.64 420.88 422.20 423.91 425.50 426.69 427.64 428.35 428.95 429.31 429.34 429.02 428.93 429.15 429.50 429.92 430.22 430.42 430.70 430.96 431.19 431.48 431.93 432.47 432.86 432.71 432.26 431.86 431.34 430.31 429.24 428.58 427.79 426.77 425.95 425.27 425.07 425.13 425.05 424.72 424.34 423.82 422.98 422.05 421.09 419.92 418.72 417.63 416.66 415.93 415.11 413.95 412.72 411.71 411.01 410.38 409.66 408.77 407.99 407.54 407.45 407.45 407.35 407.04 406.56 406.04 405.34 
472.11 469.48 466.99 464.62 462.43 460.26 458.18 456.45 454.84 452.83 450.75 449.14 448.19 447.58 446.56 444.26 441.61 439.24 437.38 435.75 434.15 432.63 430.80 428.32 425.36 422.57 420.70 419.37 418.17 417.27 416.91 416.88 417.43 418.53 420.22 422.52 424.58 426.01 426.98 427.58 428.02 428.32 428.36 428.14 428.06 428.01 428.19 428.51 428.77 429.01 429.22 429.34 429.46 429.73 430.04 430.27 430.39 430.35 430.14 429.86 429.28 428.39 427.77 427.17 426.29 425.21 424.16 423.44 423.21 423.29 423.23 422.89 422.41 421.80 420.88 420.02 419.13 417.95 416.55 415.29 414.33 413.65 412.99 412.05 411.19 410.38 409.51 408.82 408.31 407.61 406.83 406.25 406.07 406.26 406.33 406.03 405.45 404.69 403.81 
471.98 469.40 467.05 464.91 462.92 460.87 459.01 457.67 456.34 454.42 452.24 450.75 449.79 448.98 447.89 446.21 443.98 441.95 440.42 438.88 437.13 435.20 432.65 429.76 426.84 424.02 421.59 419.67 418.18 417.05 416.48 416.21 416.50 417.28 418.63 421.32 423.67 425.36 426.35 426.73 427.09 427.42 427.64 427.63 427.41 427.08 426.88 426.92 427.20 427.53 427.76 427.81 427.86 427.97 428.17 428.30 428.26 428.10 428.00 427.93 427.61 427.06 426.35 425.58 424.71 423.73 422.64 421.83 421.55 421.62 421.57 421.24 420.69 420.09 419.13 418.18 417.08 415.67 414.15 412.81 411.91 411.34 411.06 410.60 409.71 408.78 408.10 407.75 407.30 406.56 405.77 404.94 404.47 404.94 405.24 405.02 404.31 403.41 402.56 
471.89 469.51 467.46 465.58 463.71 461.73 460.17 458.94 457.77 456.38 454.54 453.11 451.67 450.49 449.03 447.54 445.71 443.90 442.67 441.12 439.13 437.06 434.69 431.98 428.95 425.98 423.55 421.47 419.38 417.48 416.34 415.89 415.97 416.79 418.11 420.00 422.22 423.95 425.00 425.65 426.01 426.55 427.01 427.12 426.83 426.22 425.76 425.61 425.79 426.07 426.26 426.36 426.33 426.29 426.39 426.42 426.21 426.11 426.13 426.15 426.03 425.76 425.27 424.48 423.48 422.35 421.18 420.29 419.83 419.90 419.86 419.61 419.18 418.48 417.49 416.28 414.68 413.09 411.79 411.12 410.58 410.02 409.42 408.79 407.96 407.00 406.38 406.15 405.94 405.33 404.42 403.68 403.53 403.83 404.08 403.76 403.02 402.16 401.17 
472.21 470.03 468.33 466.70 464.88 463.32 462.01 460.75 459.53 458.43 457.39 456.37 455.14 453.44 451.80 449.94 447.97 445.76 443.79 442.08 440.32 438.44 436.28 433.70 431.04 428.38 425.66 423.18 420.79 418.44 416.54 415.72 415.90 416.52 417.34 419.21 421.18 422.71 423.68 424.27 424.91 425.76 426.34 426.41 426.09 425.49 424.90 424.58 424.56 424.73 424.81 424.80 424.65 424.48 424.38 424.29 424.29 424.39 424.43 424.46 424.40 424.18 423.76 423.06 422.10 421.00 419.89 418.93 418.20 417.94 417.99 417.88 417.46 416.76 415.84 414.38 412.83 411.73 410.77 409.74 408.85 408.08 407.41 406.71 405.84 405.16 405.13 405.17 404.82 404.19 403.27 402.44 401.92 401.86 402.41 402.30 401.61 400.86 399.94 
472.82 470.81 469.20 467.73 466.27 464.79 463.81 462.96 461.87 460.58 459.59 458.50 457.35 456.12 454.72 453.20 451.83 449.45 446.57 444.04 441.93 439.61 437.02 434.41 431.82 429.18 426.49 423.95 421.47 419.06 416.99 415.70 415.05 415.00 415.65 417.52 419.54 421.32 422.49 423.28 424.17 424.92 425.39 425.48 425.25 424.73 424.06 423.44 423.14 423.17 423.22 423.13 422.82 422.52 422.43 422.52 422.56 422.71 422.87 422.92 422.83 422.61 422.18 421.48 420.55 419.50 418.48 417.56 416.88 416.57 416.46 416.22 415.63 414.78 413.72 412.58 411.50 410.34 409.25 408.23 407.58 406.80 405.75 404.73 404.13 404.18 404.31 404.11 403.65 402.89 401.65 400.06 398.83 398.97 400.08 400.53 399.99 399.19 398.36 
473.25 471.24 469.70 468.56 467.37 466.28 465.48 464.55 463.26 462.45 461.66 460.58 459.19 457.91 456.67 455.23 453.54 451.69 449.29 446.35 443.58 440.96 438.37 435.54 432.69 429.99 427.36 424.83 422.34 419.93 417.77 415.95 414.90 414.49 414.84 416.06 417.85 419.69 421.27 422.53 423.41 423.98 424.32 424.40 424.25 423.83 423.21 422.57 422.07 421.68 421.38 421.23 421.21 421.07 420.99 421.02 421.09 421.18 421.27 421.25 421.12 420.90 420.51 419.89 419.02 418.02 417.03 416.16 415.57 415.31 414.93 414.53 413.93 413.17 412.23 411.12 409.95 408.52 407.51 406.54 405.71 404.93 404.02 403.10 403.01 403.23 403.19 402.89 402.09 400.43 398.58 396.86 395.72 396.41 397.83 398.58 398.09 397.19 396.26 
474.57 472.56 470.81 469.54 468.74 467.95 467.17 466.36 465.07 464.44 463.70 462.70 461.33 459.97 458.52 456.59 454.57 452.83 451.23 449.28 446.79 443.71 440.31 437.52 434.52 431.05 428.33 426.38 424.77 422.40 419.01 416.05 414.75 414.05 413.92 414.33 416.05 417.91 419.34 420.60 421.88 422.79 423.22 423.33 423.15 422.73 422.13 421.47 420.80 420.17 419.78 419.63 419.64 419.59 419.59 419.61 419.64 419.66 419.62 419.54 419.38 419.15 418.83 418.31 417.60 416.68 415.72 414.84 414.02 413.62 413.34 412.86 412.18 411.39 410.44 409.36 408.31 407.12 405.95 404.51 403.22 402.34 401.63 401.24 401.59 401.75 401.66 400.61 398.38 396.23 394.34 392.93 392.81 393.90 395.55 396.67 396.23 394.92 393.66 
475.89 473.97 472.15 470.67 469.84 469.20 468.66 468.15 467.49 466.62 465.85 464.83 463.57 462.14 460.05 457.89 455.80 453.78 452.02 450.32 448.42 445.81 442.40 439.79 436.92 433.47 431.45 429.89 427.38 423.89 420.15 416.77 414.74 413.79 413.17 412.95 413.95 415.64 417.10 418.51 420.04 421.28 421.97 422.16 422.02 421.63 421.04 420.42 419.72 419.01 418.32 417.95 418.00 418.28 418.34 418.28 418.24 418.15 418.03 417.89 417.69 417.46 417.19 416.75 416.11 415.32 414.47 413.66 412.77 411.93 411.46 411.22 410.66 409.82 408.66 407.46 406.42 405.52 404.43 402.92 401.30 399.88 399.04 398.77 398.87 398.99 398.79 397.66 395.18 392.44 390.40 389.76 390.15 391.37 393.12 394.55 394.11 392.79 391.87 
477.60 475.75 474.04 472.48 471.26 470.55 470.10 469.72 469.31 468.89 468.31 467.37 466.21 464.31 461.72 459.40 457.25 455.10 452.91 450.78 449.31 448.11 445.21 441.85 439.71 437.46 435.29 432.33 428.57 424.63 420.70 417.08 414.72 413.60 412.79 412.45 412.89 413.81 415.02 416.55 418.11 419.42 420.37 420.79 420.86 420.70 420.31 419.73 419.01 418.20 417.32 416.64 416.44 416.72 417.01 417.03 416.87 416.69 416.52 416.36 416.16 415.96 415.69 415.32 414.77 414.12 413.36 412.47 411.29 410.07 409.52 409.30 408.83 408.05 406.98 405.97 405.25 404.39 403.05 401.44 399.78 398.12 396.70 396.13 396.18 396.24 395.90 394.72 392.25 389.78 388.71 388.75 389.09 389.89 391.43 392.05 391.50 390.82 390.49 
479.61 477.73 476.10 474.71 473.33 472.38 471.85 471.46 471.14 470.94 470.60 470.16 469.01 466.41 463.49 461.04 458.85 456.67 454.29 451.86 450.58 450.29 448.71 445.50 442.57 440.64 438.69 434.85 430.80 426.92 423.05 419.43 416.78 415.10 413.85 412.33 411.92 412.73 413.90 414.98 415.94 417.05 418.14 418.90 419.35 419.49 419.36 419.01 418.38 417.63 416.84 416.00 415.33 415.08 415.37 415.65 415.60 415.37 415.18 415.00 414.80 414.58 414.38 414.09 413.68 413.08 412.26 411.25 409.82 408.32 407.44 407.13 406.88 406.33 405.57 404.94 404.35 403.25 401.68 400.01 398.34 396.68 395.07 393.85 393.52 393.45 393.00 391.79 389.83 389.16 389.34 389.71 390.11 390.49 390.60 390.15 389.66 389.44 389.44 
482.32 480.25 478.20 476.74 475.33 474.19 473.48 473.21 473.22 473.18 472.78 471.62 470.21 468.12 465.34 462.71 460.45 458.22 455.88 453.95 452.58 451.70 450.65 448.24 445.66 443.55 440.88 437.14 433.20 429.32 425.45 421.83 419.24 417.57 415.50 413.33 411.93 412.18 413.10 413.63 414.11 415.12 416.05 416.34 416.70 417.22 417.74 418.09 417.86 417.27 416.54 415.68 414.76 413.96 413.70 414.03 414.30 414.22 414.05 413.88 413.68 413.45 413.07 412.61 412.00 411.47 410.74 409.60 408.15 406.71 405.68 405.19 404.96 404.60 404.30 403.83 402.93 401.68 400.17 398.54 396.88 395.22 393.63 392.24 391.11 390.58 390.07 389.51 389.60 389.92 390.19 390.42 390.65 390.80 390.58 389.80 388.94 388.45 388.45 
484.70 482.48 480.42 478.86 477.47 476.32 475.46 475.02 474.87 474.80 474.10 472.55 470.80 469.00 466.77 464.31 462.05 459.88 457.86 456.32 454.94 453.48 451.69 449.67 447.67 445.11 442.24 439.30 435.66 431.76 427.86 424.25 421.52 419.19 416.91 414.62 412.60 411.71 411.97 412.25 412.54 413.26 413.95 413.70 413.95 414.72 415.44 416.09 416.42 416.19 415.68 415.09 414.33 413.43 412.83 412.77 413.03 412.95 412.70 412.33 411.96 411.63 411.39 410.95 410.46 409.97 409.08 407.73 406.42 405.26 404.48 404.03 403.69 403.44 403.05 402.34 401.32 400.08 398.66 397.05 395.39 393.75 392.54 392.04 390.90 390.05 389.75 389.75 389.97 390.25 390.49 390.72 390.89 390.86 390.54 389.74 388.80 387.98 387.64 
486.48 484.27 482.45 480.88 479.44 478.15 477.17 476.74 476.52 476.08 474.82 472.86 471.11 469.51 467.66 465.33 463.22 460.68 458.35 457.20 456.25 454.97 453.03 450.80 448.71 446.49 443.90 440.86 436.96 432.93 429.17 425.93 423.53 421.29 419.01 416.71 414.27 411.90 410.86 410.85 411.04 411.36 411.66 411.25 411.50 412.30 413.12 413.86 414.39 414.56 414.48 414.29 413.68 412.40 411.78 411.64 411.41 411.10 410.85 410.65 410.32 410.02 409.74 409.32 408.93 408.17 407.11 405.96 404.78 403.80 403.33 403.10 402.81 402.41 401.79 400.83 399.72 398.47 397.13 395.56 393.91 392.43 391.63 391.46 390.89 390.27 390.07 390.12 390.29 390.54 390.78 390.97 390.98 390.83 390.48 389.68 388.79 388.11 387.64 
487.32 485.31 483.51 481.89 480.81 479.54 478.41 478.01 477.74 476.79 475.02 473.22 471.56 469.58 467.34 465.50 463.57 460.96 458.76 457.67 456.90 455.37 453.48 451.68 449.75 447.73 445.76 443.35 438.89 434.81 431.33 428.43 426.15 423.95 421.55 418.87 416.52 414.69 413.67 412.73 411.42 410.23 409.83 409.74 409.77 410.45 411.47 412.32 412.62 412.49 412.58 413.10 413.10 412.16 411.36 411.08 410.74 410.17 409.85 409.45 408.92 408.69 408.24 407.72 407.17 406.52 405.66 404.47 403.43 402.77 402.42 402.20 401.88 401.36 400.57 399.49 398.20 396.87 395.53 394.05 392.46 391.14 390.73 390.87 390.89 390.52 390.44 390.50 390.60 390.83 391.04 391.11 390.97 390.78 390.43 389.63 388.81 388.34 387.96 
487.40 485.74 483.75 481.88 480.82 480.04 479.18 478.52 477.82 476.56 474.69 472.83 471.00 468.95 466.50 464.11 462.28 460.60 458.84 457.42 456.29 454.99 453.51 451.95 450.50 448.96 446.91 444.62 441.54 437.99 434.91 432.02 429.33 426.85 424.58 422.39 420.27 418.45 417.15 415.64 413.07 410.81 409.61 409.12 409.09 409.17 409.97 410.86 411.09 411.02 411.23 411.91 412.28 411.95 411.30 410.92 410.23 409.24 408.58 408.16 407.83 407.38 406.97 406.50 405.92 405.20 404.27 403.41 402.69 401.89 401.41 401.18 400.86 400.26 399.44 398.45 397.21 395.77 394.28 392.75 391.16 389.99 389.93 390.24 390.56 390.75 390.84 390.90 390.98 391.14 391.25 391.12 390.92 390.72 390.37 389.65 389.06 388.68 388.50 
486.48 484.54 482.98 481.79 480.73 479.81 478.73 477.82 476.85 475.44 473.40 471.38 469.51 467.83 465.81 463.07 460.95 459.27 457.92 456.98 455.57 454.24 453.16 451.94 450.54 449.12 447.51 445.75 443.38 440.33 438.05 436.76 435.42 432.77 428.82 426.11 424.07 421.93 419.49 417.08 414.56 412.36 410.51 409.22 408.64 408.39 408.81 409.73 410.52 410.83 410.98 411.12 411.23 411.27 411.12 410.77 409.88 408.85 408.12 407.60 407.15 406.73 406.34 405.87 405.04 404.03 403.46 402.98 402.30 401.34 400.47 400.05 399.67 399.07 398.23 397.33 396.21 394.82 393.34 391.79 390.31 389.82 390.10 390.51 390.89 391.17 391.28 391.32 391.38 391.39 391.26 391.07 390.87 390.67 390.33 389.74 389.38 389.22 389.11 
485.29 483.32 481.83 480.61 479.60 478.50 477.31 476.41 475.52 474.11 472.13 470.05 468.01 465.99 464.03 461.97 459.69 458.15 457.28 456.21 454.76 453.53 452.42 451.27 450.05 449.05 448.05 446.73 444.72 442.45 440.75 439.11 437.11 434.78 432.31 429.71 427.19 424.65 421.96 419.35 416.89 414.56 412.39 410.24 408.69 408.15 408.40 409.11 410.08 410.54 410.68 410.71 410.79 410.87 410.77 410.25 409.47 408.59 407.85 407.19 406.61 406.19 405.81 405.23 404.31 403.70 403.19 402.61 401.85 400.82 399.81 399.23 398.76 398.26 397.64 396.71 395.55 394.32 393.16 392.04 390.96 390.28 390.45 390.85 391.21 391.51 391.69 391.76 391.80 391.75 391.54 391.23 390.89 390.62 390.37 390.05 389.86 389.82 389.74 
483.41 481.45 480.17 479.05 478.03 476.99 475.85 474.95 474.09 472.98 471.29 469.12 466.79 464.23 461.58 459.67 458.13 457.10 455.78 454.27 453.34 452.45 451.45 450.42 449.42 448.64 447.82 446.76 445.33 443.57 441.91 439.92 438.00 435.86 433.73 432.13 430.43 427.74 425.05 422.48 419.38 416.11 413.01 410.82 409.25 408.27 408.12 408.67 409.38 409.82 409.98 409.91 409.76 409.64 409.62 409.45 408.96 408.38 407.67 406.91 406.20 405.58 404.85 404.16 403.75 403.33 402.82 402.23 401.44 400.36 399.59 398.83 398.07 397.59 397.08 396.19 395.13 394.37 393.49 392.41 391.33 390.64 390.80 391.17 391.50 391.83 392.10 392.20 392.20 392.09 391.89 391.66 391.37 391.01 390.74 390.45 390.43 390.45 390.41 
481.46 479.58 478.31 477.24 476.24 475.31 474.29 473.25 472.29 471.18 469.85 467.70 465.06 462.24 459.61 457.76 456.33 455.33 454.06 452.62 451.78 450.98 450.01 449.06 448.38 448.12 447.61 446.29 444.87 443.60 442.51 440.94 438.99 436.93 435.00 433.87 432.82 430.64 428.03 425.41 422.07 418.45 415.29 413.25 411.27 409.08 407.95 408.17 408.62 409.01 409.22 409.12 408.91 408.78 408.84 408.83 408.66 408.24 407.49 406.63 405.68 404.80 404.20 403.81 403.41 402.91 402.35 401.66 400.78 400.03 399.37 398.59 397.78 397.08 396.40 395.65 394.83 394.10 393.42 392.66 391.69 391.00 391.12 391.47 391.80 392.14 392.45 392.60 392.52 392.26 392.02 391.79 391.46 391.18 391.00 390.73 390.74 390.92 391.09 
479.55 477.71 476.06 474.83 473.80 472.94 472.14 471.42 470.63 469.61 467.92 465.67 463.06 460.35 458.17 456.42 454.84 453.51 452.02 451.15 450.42 449.50 448.50 447.59 446.99 446.49 445.90 445.05 444.26 443.10 441.63 440.19 438.78 437.24 435.70 434.93 434.25 432.52 430.00 427.18 424.26 421.16 418.20 415.65 413.10 410.58 408.54 407.64 407.80 408.19 408.40 408.40 408.19 407.94 407.93 407.93 407.86 407.48 406.88 406.07 405.03 404.22 403.80 403.41 402.96 402.40 401.68 400.86 400.22 399.66 399.03 398.32 397.76 396.96 396.09 395.60 394.96 393.89 393.07 392.40 391.73 391.28 391.43 391.77 392.11 392.45 392.77 392.92 392.76 392.41 392.14 391.90 391.63 391.50 391.40 391.40 391.61 391.75 391.75 
477.76 475.65 473.88 472.70 471.76 470.83 470.02 469.39 468.73 467.81 465.94 463.36 460.84 458.56 457.02 455.38 453.51 452.16 450.89 449.84 448.90 447.92 446.84 445.80 445.21 444.76 444.27 443.69 442.95 441.82 440.26 439.23 438.30 437.07 435.90 435.09 433.95 432.34 430.45 427.99 425.18 422.28 419.49 417.00 414.60 412.08 409.31 407.34 407.05 407.35 407.57 407.67 407.49 407.10 406.68 406.53 406.83 406.55 405.78 404.82 404.16 403.64 403.20 402.81 402.30 401.50 400.87 400.32 399.82 399.28 398.61 398.04 397.52 396.86 396.09 395.40 394.70 393.44 392.03 391.13 391.33 391.98 392.08 392.18 392.47 392.82 393.11 393.14 392.87 392.53 392.28 392.10 391.99 391.93 391.93 391.99 392.11 392.14 392.09 
475.87 473.79 471.95 470.69 469.48 468.45 467.63 467.19 466.77 465.67 463.64 460.89 458.67 457.37 455.87 453.93 452.07 451.01 449.72 448.43 447.34 446.34 445.35 444.36 443.45 442.88 442.40 441.80 440.93 439.95 438.89 437.98 437.13 436.07 434.93 433.89 432.87 431.84 430.52 428.57 426.02 423.13 420.15 417.59 415.13 412.44 409.59 407.18 406.52 406.55 406.70 406.83 406.70 406.27 405.78 405.39 405.17 404.93 404.51 403.99 403.41 402.79 402.21 401.74 401.33 400.82 400.41 399.99 399.48 398.93 398.40 397.91 397.43 396.88 396.28 395.67 394.79 393.21 391.64 391.57 392.38 393.18 393.42 393.19 392.99 393.16 393.29 393.11 392.93 392.83 392.74 392.80 392.69 392.58 392.56 392.60 392.71 392.60 392.44 
474.35 472.28 470.52 469.02 467.61 466.18 465.16 464.57 463.84 462.47 460.63 458.68 457.46 456.44 455.05 453.08 451.58 450.20 448.62 447.30 445.89 444.38 443.03 441.86 441.09 440.90 440.52 439.94 439.07 437.94 437.01 436.40 435.77 434.72 433.50 432.24 431.20 430.25 428.98 427.51 425.83 423.59 420.73 418.03 415.28 412.45 409.57 407.09 406.40 406.31 406.23 406.17 405.84 405.38 405.14 405.12 404.82 404.35 403.75 403.08 402.43 402.04 401.66 401.24 400.78 400.39 400.06 399.65 399.19 398.74 398.28 397.85 397.46 397.11 396.83 396.17 395.00 393.39 392.36 392.85 393.73 394.34 394.36 394.16 393.92 393.64 393.45 393.31 393.27 393.33 393.45 393.45 393.24 393.12 393.02 393.04 393.11 393.12 393.10 
472.96 471.03 469.29 467.61 465.76 463.93 462.69 461.72 460.47 459.18 458.23 457.58 456.37 455.05 453.51 452.14 451.07 449.16 447.50 446.10 444.28 442.35 440.74 439.78 439.26 439.01 438.60 438.02 437.07 435.93 435.35 434.64 433.54 432.33 431.37 430.40 429.49 428.47 427.31 425.97 424.25 422.77 420.73 418.04 415.21 412.38 409.59 407.37 406.52 406.16 405.91 405.58 405.05 404.84 404.93 404.85 404.53 404.16 403.56 402.94 402.31 401.72 401.21 400.75 400.38 400.05 399.76 399.43 399.00 398.56 398.17 397.89 397.61 397.38 397.18 396.48 395.13 393.34 392.34 393.32 394.59 394.84 394.65 394.74 395.13 394.89 394.50 394.45 394.38 394.21 394.13 394.05 393.84 393.71 393.65 393.68 393.72 393.74 393.74 
471.62 469.58 467.78 465.85 463.54 461.68 460.24 459.16 458.13 457.41 456.78 455.89 454.81 453.74 452.23 451.45 450.28 448.37 446.64 444.98 443.13 441.21 439.40 438.05 437.18 436.50 435.98 435.57 434.82 434.17 433.15 432.03 431.28 430.58 429.70 428.86 427.96 426.54 425.25 424.16 422.52 421.16 419.56 417.55 414.91 412.08 409.43 407.54 406.54 405.99 405.54 405.04 404.46 404.51 404.77 404.61 404.32 404.01 403.45 402.78 402.08 401.46 401.00 400.58 400.24 399.93 399.66 399.38 399.01 398.59 398.26 398.02 397.79 397.52 397.12 396.41 395.00 392.79 392.12 393.40 394.44 394.75 395.76 397.07 397.76 397.55 397.30 397.32 397.34 397.19 397.07 396.66 395.74 395.17 394.84 394.63 394.57 394.59 394.47 
470.63 468.53 466.24 463.77 461.40 459.42 458.00 457.07 456.64 456.18 455.55 454.67 453.64 452.18 451.46 450.85 449.28 447.34 445.65 444.19 442.61 440.74 438.61 436.43 435.17 434.57 434.33 433.92 432.99 432.12 431.32 430.49 429.47 428.73 428.14 427.26 426.03 424.56 423.48 422.34 420.64 419.05 417.81 416.58 414.50 411.86 409.51 407.79 406.57 405.89 405.36 404.85 404.32 403.91 404.04 404.05 403.89 403.63 403.10 402.46 401.80 401.23 400.80 400.41 400.08 399.75 399.44 399.18 398.92 398.58 398.30 398.07 397.84 397.57 397.28 396.62 395.16 393.45 393.25 394.31 395.48 396.86 398.33 399.68 400.39 400.20 400.11 400.17 400.21 400.15 399.88 398.93 397.76 396.97 396.50 396.08 395.82 395.71 395.56 
469.13 467.12 464.72 462.24 459.92 457.99 456.82 456.06 455.47 455.09 454.75 453.59 452.09 451.22 450.54 449.24 447.69 446.11 444.63 443.30 441.83 440.05 437.99 436.20 434.43 433.05 432.19 431.53 430.86 430.16 429.37 428.64 427.93 427.08 426.15 424.88 423.77 423.25 422.64 421.44 419.70 417.91 416.39 415.11 413.76 411.66 409.77 408.14 406.71 405.85 405.17 404.57 404.11 403.70 403.22 403.02 403.11 402.91 402.43 401.98 401.51 401.00 400.58 400.18 399.85 399.49 399.16 398.96 398.92 398.52 398.24 397.98 397.78 397.55 397.00 395.98 394.92 394.79 395.35 396.39 397.94 399.47 400.94 402.31 403.06 402.99 402.96 403.03 403.09 402.97 402.25 401.06 399.79 398.77 398.20 397.75 397.33 397.04 396.85 
467.31 465.70 463.63 461.15 458.78 456.85 455.51 455.03 454.69 454.30 453.30 451.58 450.14 449.68 448.67 447.12 445.69 444.46 443.42 442.15 440.86 439.30 437.53 435.95 433.82 431.76 430.37 429.56 428.94 428.28 427.77 427.14 426.21 425.03 424.10 423.49 422.95 421.88 420.61 419.28 418.01 416.94 415.57 414.08 412.73 411.40 409.93 408.40 406.95 405.79 405.00 404.45 403.73 403.09 402.70 402.33 402.30 402.29 401.99 401.62 401.25 400.80 400.36 399.98 399.56 399.16 398.77 398.54 398.56 398.40 398.31 398.11 397.82 397.37 396.80 395.87 395.43 396.20 397.16 398.51 400.23 401.98 403.55 404.93 405.74 405.81 405.82 405.89 405.94 405.70 404.64 403.26 401.87 400.68 399.98 399.51 399.09 398.65 398.14 
465.10 463.62 461.84 459.74 457.65 455.91 454.71 454.39 454.05 452.67 450.74 449.24 448.37 447.76 446.64 445.13 443.57 442.51 441.72 440.73 439.64 438.42 436.88 434.91 432.79 430.41 427.99 426.73 426.11 425.84 425.72 425.00 424.14 423.68 422.93 422.14 421.05 419.80 418.57 417.48 416.73 415.84 414.59 413.12 411.81 410.58 409.14 407.77 406.90 406.09 405.06 404.03 403.08 402.40 402.07 401.80 401.63 401.58 401.42 401.20 400.91 400.47 400.05 399.64 399.21 398.78 398.34 398.08 398.27 398.36 398.36 398.04 397.48 397.00 396.57 395.85 396.14 397.74 399.21 400.67 402.32 404.19 405.98 407.51 408.43 408.62 408.66 408.66 408.64 408.39 407.41 406.06 404.66 403.48 402.88 402.45 401.99 401.30 400.22 
463.12 461.48 459.58 457.68 455.98 454.43 454.00 453.84 452.64 450.48 448.37 446.99 446.01 445.56 444.57 443.13 441.85 441.10 440.32 439.66 438.83 437.45 435.58 433.58 431.13 427.70 424.97 424.72 424.72 424.44 424.19 423.86 423.37 422.68 421.51 420.50 419.32 417.98 416.71 415.77 415.04 414.13 413.00 411.86 410.82 409.75 408.66 407.91 407.08 405.88 404.46 403.42 402.53 402.02 401.68 401.48 401.25 401.13 400.98 400.81 400.60 400.20 399.75 399.31 398.87 398.46 398.03 397.74 397.76 397.60 397.60 397.41 397.02 396.46 395.73 395.29 395.90 397.71 400.23 402.45 404.39 406.32 408.20 409.93 411.11 411.36 411.34 411.33 411.30 411.07 410.18 408.85 407.56 406.68 406.14 405.70 405.13 404.05 402.63 
461.01 459.26 457.52 456.30 455.18 454.02 453.69 453.17 451.48 449.38 447.48 445.86 444.57 443.61 442.55 441.41 440.45 439.44 438.43 437.58 436.75 435.45 433.73 431.79 429.49 426.51 424.38 423.91 423.76 423.56 423.44 423.09 422.24 420.98 419.71 418.60 417.38 416.14 415.02 414.19 413.40 412.46 411.52 410.66 409.75 408.91 408.11 407.24 406.32 405.30 404.13 403.18 402.42 401.83 401.37 401.08 400.86 400.75 400.67 400.54 400.28 399.86 399.47 399.06 398.62 398.17 397.78 397.55 397.46 397.23 396.84 396.31 395.95 395.78 395.44 395.30 395.97 397.91 400.37 402.92 405.16 407.30 409.31 411.22 412.90 413.84 414.02 414.00 413.97 413.76 412.95 411.65 410.43 409.82 409.38 408.87 407.99 406.56 405.12 
458.83 457.26 456.07 455.03 454.16 453.73 453.28 452.00 450.25 448.30 446.35 444.69 443.68 442.15 440.85 440.04 438.98 437.59 436.36 435.44 434.72 433.71 431.91 429.66 427.67 425.86 424.47 423.72 423.67 423.61 422.51 421.50 420.42 419.23 418.01 416.85 415.74 414.56 413.56 412.78 412.01 411.14 410.22 409.53 408.90 408.19 407.34 406.42 405.48 404.54 403.54 402.50 401.91 401.66 401.35 400.83 400.62 400.58 400.45 400.28 399.94 399.46 399.09 398.73 398.34 397.95 397.55 397.28 397.32 397.05 396.45 396.14 396.01 395.57 395.39 395.44 396.35 398.46 400.91 403.35 405.69 407.91 410.03 412.17 414.27 416.04 416.63 416.67 416.64 416.44 415.71 414.51 413.51 413.03 412.62 411.97 410.58 408.86 407.56 
456.69 455.60 454.72 453.99 453.70 453.27 451.99 450.47 449.05 447.68 445.73 443.71 441.93 440.15 438.83 438.01 437.11 435.85 434.78 433.92 433.03 431.94 430.16 428.26 426.65 424.81 423.52 422.83 422.45 422.05 420.95 419.63 418.43 417.36 416.27 415.11 414.10 413.11 412.15 411.36 410.59 409.72 408.81 407.88 407.15 406.62 405.94 405.17 404.40 403.57 402.69 401.88 401.29 400.96 400.92 400.61 400.41 400.36 400.21 399.95 399.56 399.09 398.67 398.42 398.10 397.71 397.31 396.95 396.78 396.56 396.27 396.15 396.11 395.68 395.47 395.59 396.93 399.18 401.65 404.09 406.34 408.50 410.73 413.09 415.39 417.51 419.01 419.34 419.31 419.13 418.48 417.42 416.74 416.30 415.75 414.64 412.87 411.19 410.02 
455.38 454.79 454.01 453.44 453.04 451.82 450.55 449.46 448.09 446.41 444.59 442.85 441.21 438.95 437.07 435.98 435.06 434.07 433.23 432.40 431.30 429.99 428.38 426.68 424.96 423.36 422.30 421.86 421.34 420.57 419.54 418.37 417.24 416.17 414.97 413.83 412.88 411.93 410.92 409.99 409.18 408.28 407.25 406.20 405.67 405.08 404.33 403.57 402.82 402.18 401.75 401.43 401.20 401.00 400.66 400.28 400.06 399.98 399.76 399.50 399.21 398.82 398.44 398.18 397.92 397.54 397.07 396.60 396.40 396.35 396.38 396.14 395.74 395.55 395.95 397.10 399.00 400.85 402.71 404.87 407.02 409.14 411.39 413.98 416.50 418.75 420.71 421.80 421.97 421.81 421.27 420.38 420.00 419.53 418.65 416.97 415.12 413.66 412.53 
454.05 453.45 452.71 452.06 451.26 450.14 448.77 447.53 446.61 445.10 443.21 441.33 439.39 437.15 435.73 434.00 432.56 431.79 431.65 431.39 430.14 428.11 426.34 424.82 423.63 422.51 421.68 421.02 420.29 419.49 418.65 417.45 416.08 414.83 413.79 412.73 411.74 410.75 409.72 408.73 407.80 406.84 405.83 404.95 404.29 403.80 403.40 403.01 402.63 402.25 401.86 401.50 401.12 400.64 400.32 400.02 399.79 399.63 399.42 399.17 398.89 398.57 398.26 398.00 397.71 397.36 396.89 396.35 396.08 396.08 396.20 396.47 396.62 396.59 397.15 399.06 401.40 403.60 405.47 407.36 409.45 411.53 413.52 415.49 417.71 419.92 422.09 423.90 424.54 424.49 424.12 423.59 423.33 422.61 421.07 419.16 417.36 416.13 415.04 
452.06 451.47 450.93 450.28 449.50 448.41 447.07 446.05 444.93 443.34 441.22 439.42 437.78 436.20 434.69 432.98 431.29 430.24 429.65 429.42 428.56 426.61 424.39 423.10 422.59 422.12 421.20 419.87 418.66 417.88 417.15 416.03 414.91 413.86 412.82 411.71 410.59 409.55 408.52 407.50 406.47 405.49 404.78 404.21 403.67 403.30 402.99 402.68 402.36 402.05 401.73 401.38 400.90 400.39 400.06 399.86 399.68 399.61 399.38 399.04 398.64 398.32 398.04 397.78 397.55 397.22 396.74 396.12 395.77 395.66 395.66 396.11 397.05 397.77 399.09 401.25 403.61 405.97 408.22 410.29 412.43 414.56 416.49 418.23 419.66 421.29 423.28 425.18 426.22 426.52 426.60 426.59 426.24 425.12 423.30 421.35 419.69 418.62 417.57 
449.95 449.38 448.76 447.98 447.33 446.58 445.69 444.76 443.15 441.51 439.99 438.15 436.21 434.38 432.85 431.71 430.44 428.95 427.17 425.71 424.56 423.54 422.79 422.24 421.67 420.95 419.92 418.45 417.09 416.34 415.63 414.77 413.87 412.87 411.87 410.82 409.61 408.48 407.46 406.52 405.60 404.73 404.22 403.65 403.00 402.60 402.29 401.97 401.66 401.34 401.00 400.62 400.27 400.01 399.70 399.56 399.70 399.66 399.27 398.81 398.40 398.11 397.85 397.61 397.36 396.99 396.44 395.88 395.50 395.25 395.06 395.32 396.75 399.05 401.48 403.86 406.22 408.59 411.08 413.70 415.60 417.24 419.06 420.83 422.04 423.49 425.01 426.07 426.56 427.26 427.27 426.76 426.53 426.25 425.27 423.59 422.17 421.17 420.15 
447.98 447.23 446.50 445.88 445.43 445.12 444.61 443.40 441.61 439.71 437.67 435.43 433.72 432.49 431.82 431.03 429.63 427.67 425.70 424.27 423.05 422.01 421.37 421.15 420.55 419.67 418.66 417.26 415.92 414.90 414.14 413.46 412.63 411.66 410.69 409.69 408.56 407.51 406.60 405.71 404.84 404.17 403.69 403.08 402.33 401.90 401.58 401.27 400.94 400.59 400.21 399.86 399.65 399.53 399.27 399.19 399.12 399.26 399.02 398.62 398.27 397.96 397.64 397.41 397.10 396.68 396.23 395.84 395.50 395.31 395.59 396.98 399.39 402.05 404.58 406.96 409.29 411.71 413.95 416.00 417.94 419.65 421.24 422.73 424.20 425.61 426.63 427.86 429.34 430.46 429.89 428.80 427.73 426.63 426.16 425.57 424.64 423.74 422.91 
446.16 445.46 444.73 443.98 443.59 443.57 443.17 441.62 439.30 437.05 435.04 432.78 431.99 431.71 431.45 430.30 428.45 426.61 425.28 424.13 422.88 421.59 420.64 420.26 419.68 418.90 417.80 416.36 414.98 413.85 412.95 412.18 411.28 410.38 409.54 408.63 407.61 406.45 405.46 404.76 404.09 403.51 403.05 402.45 401.67 401.20 400.88 400.55 400.18 399.86 399.70 399.57 399.29 399.07 399.00 398.86 398.53 398.57 398.31 398.02 397.89 397.76 397.50 397.21 396.79 396.37 396.05 395.76 395.48 395.63 397.10 399.42 402.05 404.75 407.35 409.70 411.88 413.92 415.92 418.00 420.18 421.87 423.18 424.47 426.05 427.81 429.34 430.78 432.07 432.60 432.11 431.25 430.05 428.57 427.38 426.85 426.40 426.12 425.48 
444.41 443.71 443.01 442.35 442.00 441.99 441.55 439.86 437.26 434.58 432.58 431.83 431.52 430.93 429.67 428.12 427.01 425.94 424.88 423.70 422.54 421.40 420.35 419.62 418.95 418.05 416.82 415.36 414.00 412.84 411.95 411.16 410.24 409.26 408.12 407.01 406.10 405.17 404.42 403.77 403.10 402.58 401.92 401.43 400.95 400.50 400.15 399.88 399.75 399.67 399.55 399.30 398.96 398.63 398.44 398.56 398.38 397.93 397.68 397.61 397.55 397.40 397.13 396.80 396.46 396.20 396.10 396.55 397.43 398.43 399.83 402.07 404.70 407.24 409.58 411.75 413.82 415.84 417.85 419.97 422.18 423.68 424.91 426.19 427.69 429.48 431.23 432.76 434.22 435.19 434.81 433.78 432.37 430.95 429.57 428.32 427.38 426.46 426.05 
442.38 441.83 441.24 440.60 440.20 440.18 439.58 438.09 435.67 433.38 432.05 431.73 431.27 429.65 428.22 427.05 425.90 425.00 424.02 422.48 421.25 420.20 419.15 418.31 417.95 417.07 415.87 414.49 413.16 411.95 410.89 409.99 409.06 407.96 406.92 405.81 404.58 403.55 402.76 402.14 402.04 401.96 401.22 400.12 399.79 399.84 399.81 399.73 399.64 399.54 399.34 399.02 398.68 398.32 398.04 398.17 398.03 397.73 397.59 397.55 397.42 397.08 396.78 396.55 396.56 397.30 398.47 399.66 400.67 401.63 402.81 404.73 406.97 409.17 411.35 413.50 415.53 417.51 419.50 421.56 423.60 425.20 426.56 428.16 429.94 431.54 433.08 434.72 436.43 437.72 437.41 436.14 434.75 433.38 432.00 430.64 429.41 428.36 427.26 
439.71 439.16 438.62 438.21 438.21 438.21 437.79 436.71 434.31 432.17 431.57 430.95 429.66 428.11 426.86 425.90 425.05 424.30 423.10 421.26 419.31 417.88 416.73 416.53 416.61 416.07 414.98 413.79 412.49 411.18 409.88 408.85 407.69 406.55 405.45 404.08 402.66 401.72 401.33 401.38 401.51 401.48 400.96 399.66 398.60 398.96 399.54 399.62 399.54 399.39 399.08 398.74 398.41 398.09 397.83 397.63 397.58 397.58 397.55 397.48 397.30 396.96 396.70 396.67 397.09 398.01 399.21 400.47 401.73 403.10 404.82 406.74 408.87 411.07 413.27 415.24 416.74 418.56 420.63 422.82 424.92 426.79 428.57 430.49 432.35 433.91 435.31 436.86 438.60 439.94 439.74 438.54 437.17 435.80 434.42 433.11 432.05 431.09 430.09 
437.16 436.49 435.92 435.64 436.22 436.53 436.13 435.25 433.68 431.98 431.09 429.97 428.55 426.98 425.81 424.89 423.99 422.81 421.76 420.38 417.89 415.96 414.75 415.11 415.36 415.01 414.16 413.06 411.61 410.00 408.42 407.18 406.17 405.04 403.70 402.50 401.75 401.21 400.93 400.92 401.01 400.96 400.55 399.52 398.64 398.47 398.76 399.32 399.39 399.12 398.82 398.56 398.34 398.16 397.99 397.76 397.55 397.53 397.49 397.40 397.22 396.99 396.75 396.79 397.59 398.72 399.95 401.32 403.10 405.15 407.13 408.87 410.84 413.01 415.11 416.85 418.29 419.81 421.89 424.16 426.19 427.67 429.66 432.12 434.35 435.84 437.12 438.69 440.56 442.10 442.16 441.03 439.62 438.23 436.89 435.70 434.72 433.80 432.88 
435.18 433.76 433.30 433.62 434.47 434.79 434.47 433.76 432.61 431.63 430.74 429.07 427.08 425.77 424.88 423.91 422.73 421.52 420.26 418.77 416.84 414.66 413.45 413.77 413.96 413.76 412.98 411.59 410.04 408.46 406.87 405.50 404.63 403.85 403.09 402.37 401.78 401.32 400.99 400.71 400.56 400.40 400.05 399.41 399.05 399.02 399.13 399.24 399.22 399.05 398.84 398.64 398.42 398.23 398.14 397.93 397.68 397.51 397.40 397.35 397.27 397.04 396.88 397.23 398.23 399.55 401.33 403.39 405.50 407.56 409.37 410.98 412.90 414.95 416.88 418.54 420.18 421.72 423.65 425.84 427.89 429.59 431.56 433.88 435.99 437.55 438.96 440.36 441.77 443.14 443.86 443.43 442.14 440.64 439.22 438.20 437.31 436.44 435.97 
434.01 431.95 431.62 432.45 432.99 433.00 432.71 432.20 431.63 431.00 429.40 427.35 425.92 424.83 423.89 422.84 421.68 420.51 419.27 417.82 415.98 413.70 412.09 412.02 412.17 412.05 411.23 409.87 408.39 406.87 405.45 404.52 404.03 403.66 403.05 402.33 401.73 401.41 401.17 400.98 401.10 401.05 400.64 399.97 399.62 399.58 399.66 399.79 399.98 399.71 399.20 398.77 398.49 398.29 398.30 398.12 397.86 397.68 397.53 397.43 397.41 397.35 397.14 397.84 399.37 401.61 403.75 405.84 407.95 409.96 411.62 413.16 415.01 416.94 418.61 420.22 422.00 423.95 426.01 427.89 429.56 431.14 432.88 435.06 437.22 439.10 440.82 442.26 443.54 444.55 445.02 444.80 444.04 442.91 441.38 440.23 439.64 438.87 438.69 
433.97 431.38 430.03 430.02 430.40 430.55 430.74 431.17 431.11 429.81 427.81 426.27 425.06 424.09 423.05 421.93 420.82 419.61 418.24 416.74 414.87 412.55 411.07 410.99 410.68 410.07 409.27 407.95 406.49 405.26 404.51 403.88 403.47 403.19 402.86 402.27 401.65 401.37 401.20 401.33 402.06 402.08 401.59 401.15 400.72 400.38 400.51 400.72 400.72 400.64 400.36 399.82 399.32 398.68 398.57 398.58 398.61 398.67 398.48 398.16 397.85 397.54 397.53 399.13 401.59 404.13 406.41 408.36 410.39 412.34 413.87 415.33 416.97 418.68 420.36 421.97 423.76 425.66 427.73 429.54 431.02 432.53 434.12 436.01 438.21 440.23 442.13 443.85 444.92 445.33 445.31 445.08 444.63 444.04 443.00 441.86 441.24 440.78 440.86 
434.24 430.97 428.57 427.63 427.80 428.13 428.92 429.61 429.22 427.82 426.45 425.23 424.12 422.96 421.95 421.15 420.21 418.99 417.56 415.84 413.81 411.58 410.17 409.40 408.60 407.91 407.15 406.02 404.87 404.22 403.88 403.58 403.34 403.09 402.54 402.07 401.58 401.29 401.25 401.59 402.01 402.12 402.12 402.03 401.77 401.48 401.30 401.30 401.42 401.38 401.03 400.50 399.87 399.46 399.87 400.01 400.21 400.61 400.62 400.10 399.96 400.90 401.04 401.84 403.97 406.59 409.07 411.12 412.90 414.59 416.00 417.32 418.75 420.33 422.03 423.69 425.35 427.19 428.93 430.73 432.40 433.94 435.44 437.06 438.98 440.86 442.89 444.64 445.36 445.46 445.43 445.34 445.10 444.66 443.91 442.95 442.45 442.23 441.89 
433.85 430.58 427.94 425.93 425.41 425.93 427.08 427.72 427.39 426.39 425.32 424.17 423.03 421.95 421.15 420.41 419.45 418.31 417.04 415.52 413.48 411.24 409.45 408.32 407.30 406.26 405.25 404.49 404.22 404.10 403.96 403.67 403.20 403.02 402.84 402.23 401.55 401.15 401.16 401.61 402.12 402.38 402.52 402.55 402.37 402.10 402.00 401.90 401.81 401.68 401.66 401.51 401.40 401.38 401.75 401.91 402.23 402.85 403.50 403.31 403.33 404.13 404.72 405.53 406.68 408.64 411.28 413.72 415.44 416.69 417.94 419.26 420.67 422.15 423.70 425.37 427.05 428.66 430.11 431.88 433.72 435.34 436.85 438.31 439.79 441.59 443.60 445.08 445.47 445.50 445.48 445.41 445.26 444.95 444.51 443.95 443.39 442.78 442.20 
433.33 430.21 427.62 425.17 423.48 424.19 425.74 426.64 426.17 425.26 424.27 423.27 421.97 420.86 420.18 419.41 418.52 417.47 416.42 415.12 413.25 411.13 409.04 407.41 406.26 405.26 404.52 404.34 404.30 404.20 404.10 403.89 403.27 402.76 402.67 402.47 401.84 401.33 401.32 401.83 402.38 402.83 403.06 403.14 403.08 403.04 402.95 402.75 402.54 402.45 402.68 402.96 403.08 403.26 403.56 403.85 404.27 404.89 405.75 406.35 406.89 407.74 408.63 409.55 410.49 411.56 413.26 415.64 417.67 418.86 419.92 421.19 422.61 424.08 425.57 427.08 428.56 429.81 431.51 433.33 434.98 436.71 438.23 439.60 441.09 442.84 444.44 445.32 445.50 445.49 445.46 445.41 445.26 444.90 444.44 443.90 443.20 442.63 442.23 
432.80 429.85 427.33 425.15 423.52 422.80 423.78 424.96 424.92 424.31 423.34 422.19 421.06 420.15 419.40 418.46 417.48 416.55 415.64 414.27 412.42 410.28 408.16 406.46 405.33 404.48 403.98 404.14 404.33 404.29 404.23 404.18 403.71 402.87 402.48 402.23 401.89 401.65 401.83 402.38 402.88 403.32 403.62 403.73 403.70 403.59 403.48 403.36 403.30 403.42 403.95 404.31 404.26 404.39 404.77 405.30 405.94 406.72 407.72 408.77 409.81 410.77 411.78 412.85 413.76 414.77 416.36 418.25 419.98 421.06 421.98 423.15 424.55 426.03 427.50 428.83 429.96 431.38 433.15 434.97 436.79 438.41 439.79 441.21 442.62 444.04 445.15 445.49 445.59 445.63 445.53 445.34 445.07 444.62 444.10 443.57 443.00 442.54 442.14 
